;FLAVOR:Marlin
;TIME:2673
;Filament used: 4.06512m
;Layer height: 0.2
;MINX:60.799
;MINY:60.796
;MINZ:0.3
;MAXX:139.212
;MAXY:139.206
;MAXZ:9.9
;Generated with Cura_SteamEngine 4.3.0
M140 S60
M105
M190 S60
M104 S210
M105
M109 S210
M82 ;absolute extrusion mode
G28 ;Home
G29; auto bed leveling
G1 Z15.0 F6000 ;Move the platform down 15mm
;Prime the extruder
G92 E0
G1 F200 E3
G92 E0
G92 E0
G92 E0
G1 F1500 E-6.5
;LAYER_COUNT:49
;LAYER:0
M107
G0 F3600 X72.079 Y72.482 Z0.3
;TYPE:SKIRT
G1 F1500 E0
G1 F1800 X72.673 Y71.897 E0.05989
G1 X72.712 Y71.858 E0.06386
G1 X73.169 Y71.421 E0.10928
G1 X73.206 Y71.387 E0.11289
G1 X73.653 Y70.971 E0.15676
G1 X73.737 Y70.894 E0.16495
G1 X74.433 Y70.285 E0.23139
G1 X74.48 Y70.245 E0.23582
G1 X74.915 Y69.877 E0.27676
G1 X74.95 Y69.848 E0.28002
G1 X75.459 Y69.428 E0.32743
G1 X75.55 Y69.355 E0.33581
G1 X76.218 Y68.838 E0.3965
G1 X76.264 Y68.803 E0.40065
G1 X76.839 Y68.372 E0.45228
G1 X76.88 Y68.342 E0.45593
G1 X77.325 Y68.018 E0.49547
G1 X77.419 Y67.952 E0.50372
G1 X78.098 Y67.489 E0.56277
G1 X78.14 Y67.46 E0.56643
G1 X78.717 Y67.078 E0.61615
G1 X78.769 Y67.045 E0.62057
G1 X79.278 Y66.72 E0.66396
G1 X79.37 Y66.663 E0.67173
G1 X80.107 Y66.222 E0.73343
G1 X80.155 Y66.194 E0.73743
G1 X80.71 Y65.873 E0.78349
G1 X80.759 Y65.845 E0.78754
G1 X81.302 Y65.542 E0.83221
G1 X81.4 Y65.489 E0.84022
G1 X82.197 Y65.075 E0.90474
G1 X82.243 Y65.051 E0.90847
G1 X82.787 Y64.778 E0.9522
G1 X82.841 Y64.752 E0.9565
G1 X83.391 Y64.487 E1.00036
G1 X83.493 Y64.44 E1.00843
G1 X84.306 Y64.078 E1.07237
G1 X84.355 Y64.056 E1.07622
G1 X84.939 Y63.806 E1.12186
G1 X84.984 Y63.787 E1.12537
G1 X85.546 Y63.555 E1.16905
G1 X85.652 Y63.514 E1.17722
G1 X86.455 Y63.211 E1.23888
G1 X86.521 Y63.186 E1.24395
G1 X87.125 Y62.971 E1.29001
G1 X87.167 Y62.957 E1.29319
G1 X87.754 Y62.756 E1.33776
G1 X87.86 Y62.721 E1.34578
G1 X88.704 Y62.46 E1.40925
G1 X88.759 Y62.443 E1.41339
G1 X89.344 Y62.272 E1.45717
G1 X89.399 Y62.257 E1.46127
G1 X90.012 Y62.088 E1.50695
G1 X90.117 Y62.06 E1.51476
G1 X90.988 Y61.847 E1.57917
G1 X91.037 Y61.836 E1.58278
G1 X91.575 Y61.712 E1.62245
G1 X91.634 Y61.699 E1.62679
G1 X92.309 Y61.555 E1.67637
G1 X92.412 Y61.534 E1.68392
G1 X93.244 Y61.381 E1.7447
G1 X93.314 Y61.369 E1.7498
G1 X93.941 Y61.266 E1.79545
G1 X93.986 Y61.259 E1.79872
G1 X94.606 Y61.165 E1.84377
G1 X94.719 Y61.15 E1.85196
G1 X95.59 Y61.045 E1.91499
G1 X95.646 Y61.038 E1.91904
G1 X96.235 Y60.976 E1.96159
G1 X96.285 Y60.972 E1.96519
G1 X96.929 Y60.913 E2.01165
G1 X97.043 Y60.904 E2.01987
G1 X97.951 Y60.849 E2.08522
G1 X98.013 Y60.846 E2.08968
G1 X98.584 Y60.821 E2.13074
G1 X98.634 Y60.819 E2.13434
G1 X99.294 Y60.799 E2.18178
G1 X99.403 Y60.797 E2.18961
G1 X100.255 Y60.796 E2.25082
G1 X100.316 Y60.796 E2.2552
G1 X100.964 Y60.806 E2.30176
G1 X101.01 Y60.807 E2.30506
G1 X101.621 Y60.824 E2.34898
G1 X101.739 Y60.83 E2.35746
G1 X102.611 Y60.882 E2.42022
G1 X102.669 Y60.885 E2.42439
G1 X103.268 Y60.93 E2.46755
G1 X103.316 Y60.934 E2.47101
G1 X103.974 Y60.992 E2.51846
G1 X104.089 Y61.004 E2.52677
G1 X104.924 Y61.104 E2.58719
G1 X104.981 Y61.112 E2.59132
G1 X105.638 Y61.201 E2.63895
G1 X105.691 Y61.208 E2.64279
G1 X106.304 Y61.3 E2.68733
G1 X106.416 Y61.319 E2.69549
G1 X107.243 Y61.469 E2.75587
G1 X107.293 Y61.478 E2.75952
G1 X107.942 Y61.605 E2.80703
G1 X108.002 Y61.617 E2.81143
G1 X108.599 Y61.744 E2.85528
G1 X108.701 Y61.768 E2.8628
G1 X109.526 Y61.968 E2.92379
G1 X109.586 Y61.983 E2.92823
G1 X110.228 Y62.15 E2.97589
G1 X110.276 Y62.163 E2.97946
G1 X110.841 Y62.318 E3.02155
G1 X110.953 Y62.35 E3.02992
G1 X111.845 Y62.625 E3.09698
G1 X111.899 Y62.642 E3.10105
G1 X112.419 Y62.811 E3.14033
G1 X112.466 Y62.827 E3.1439
G1 X113.116 Y63.048 E3.19322
G1 X113.225 Y63.087 E3.20154
G1 X114.02 Y63.385 E3.26253
G1 X114.076 Y63.406 E3.26683
G1 X114.63 Y63.624 E3.3096
G1 X114.673 Y63.641 E3.31292
G1 X115.286 Y63.891 E3.36048
G1 X115.394 Y63.938 E3.36894
G1 X116.227 Y64.309 E3.43445
G1 X116.275 Y64.33 E3.43822
G1 X116.751 Y64.55 E3.47589
G1 X116.801 Y64.574 E3.47988
G1 X117.442 Y64.882 E3.53097
G1 X117.54 Y64.931 E3.53884
G1 X118.302 Y65.325 E3.60047
G1 X118.355 Y65.353 E3.60477
G1 X118.872 Y65.631 E3.64694
G1 X118.922 Y65.658 E3.65103
G1 X119.503 Y65.982 E3.69882
G1 X119.597 Y66.036 E3.70661
G1 X120.328 Y66.472 E3.76775
G1 X120.372 Y66.499 E3.77146
G1 X120.908 Y66.829 E3.81668
G1 X120.962 Y66.863 E3.82127
G1 X121.5 Y67.207 E3.86714
G1 X121.588 Y67.265 E3.87472
G1 X122.307 Y67.754 E3.93718
G1 X122.358 Y67.79 E3.94167
G1 X122.88 Y68.158 E3.98755
G1 X122.916 Y68.183 E3.9907
G1 X123.378 Y68.517 E4.03166
G1 X123.474 Y68.589 E4.04028
G1 X124.227 Y69.171 E4.10865
G1 X124.271 Y69.205 E4.11265
G1 X124.764 Y69.598 E4.15794
G1 X124.807 Y69.633 E4.16192
G1 X125.261 Y70.006 E4.20414
G1 X125.346 Y70.078 E4.21214
G1 X125.962 Y70.616 E4.2709
G1 X126.004 Y70.653 E4.27492
G1 X126.504 Y71.103 E4.32324
G1 X126.544 Y71.14 E4.32716
G1 X126.998 Y71.561 E4.37164
G1 X127.076 Y71.635 E4.37936
G1 X127.706 Y72.254 E4.44282
G1 X127.748 Y72.296 E4.44708
G1 X128.175 Y72.729 E4.49077
G1 X128.214 Y72.769 E4.49479
G1 X128.659 Y73.234 E4.54102
G1 X128.731 Y73.312 E4.54865
G1 X129.32 Y73.964 E4.61177
G1 X129.364 Y74.014 E4.61656
G1 X129.771 Y74.481 E4.66106
G1 X129.801 Y74.515 E4.66432
G1 X130.187 Y74.969 E4.70713
G1 X130.26 Y75.058 E4.7154
G1 X130.835 Y75.778 E4.7816
G1 X130.872 Y75.825 E4.7859
G1 X131.208 Y76.26 E4.82538
G1 X131.238 Y76.3 E4.82898
G1 X131.676 Y76.883 E4.88136
G1 X131.742 Y76.973 E4.88938
G1 X132.154 Y77.557 E4.94073
G1 X132.186 Y77.604 E4.94481
G1 X132.601 Y78.212 E4.9977
G1 X132.633 Y78.258 E5.00172
G1 X132.97 Y78.768 E5.04564
G1 X133.027 Y78.858 E5.05329
G1 X133.496 Y79.614 E5.11721
G1 X133.528 Y79.666 E5.12159
G1 X133.849 Y80.203 E5.16654
G1 X133.877 Y80.252 E5.17059
G1 X134.179 Y80.775 E5.21398
G1 X134.233 Y80.871 E5.22189
G1 X134.658 Y81.66 E5.28628
G1 X134.684 Y81.71 E5.29033
G1 X134.98 Y82.28 E5.33647
G1 X135.004 Y82.325 E5.34013
G1 X135.275 Y82.865 E5.38354
G1 X135.324 Y82.968 E5.39173
G1 X135.673 Y83.72 E5.45129
G1 X135.698 Y83.774 E5.45557
G1 X135.976 Y84.399 E5.50471
G1 X135.996 Y84.444 E5.50825
G1 X136.226 Y84.98 E5.55015
G1 X136.267 Y85.082 E5.55805
G1 X136.604 Y85.936 E5.62401
G1 X136.629 Y86.001 E5.62901
G1 X136.817 Y86.505 E5.66765
G1 X136.833 Y86.547 E5.67088
G1 X137.077 Y87.226 E5.72272
G1 X137.111 Y87.327 E5.73037
G1 X137.363 Y88.097 E5.78858
G1 X137.384 Y88.162 E5.79349
G1 X137.595 Y88.849 E5.84512
G1 X137.609 Y88.894 E5.8485
G1 X137.76 Y89.409 E5.88706
G1 X137.789 Y89.516 E5.89502
G1 X138.013 Y90.374 E5.95873
G1 X138.029 Y90.435 E5.96326
G1 X138.19 Y91.097 E6.01221
G1 X138.201 Y91.143 E6.0156
G1 X138.328 Y91.696 E6.05637
G1 X138.351 Y91.805 E6.06437
G1 X138.521 Y92.662 E6.12714
G1 X138.533 Y92.727 E6.13189
G1 X138.641 Y93.327 E6.17569
G1 X138.649 Y93.374 E6.17911
G1 X138.76 Y94.039 E6.22755
G1 X138.777 Y94.149 E6.23554
G1 X138.889 Y94.971 E6.29514
G1 X138.896 Y95.029 E6.29934
G1 X138.975 Y95.686 E6.34688
G1 X138.981 Y95.735 E6.35043
G1 X139.043 Y96.315 E6.39233
G1 X139.053 Y96.431 E6.4007
G1 X139.122 Y97.347 E6.46669
G1 X139.126 Y97.402 E6.47065
G1 X139.162 Y98 E6.51369
G1 X139.165 Y98.052 E6.51743
G1 X139.195 Y98.701 E6.56411
G1 X139.199 Y98.815 E6.5723
G1 X139.212 Y99.644 E6.63187
G1 X139.212 Y100.397 E6.68596
G1 X139.203 Y101.029 E6.73137
G1 X139.199 Y101.14 E6.73935
G1 X139.16 Y102.022 E6.80278
G1 X139.157 Y102.081 E6.80702
G1 X139.118 Y102.731 E6.8538
G1 X139.115 Y102.778 E6.85719
G1 X139.072 Y103.368 E6.89969
G1 X139.062 Y103.486 E6.90819
G1 X138.975 Y104.315 E6.96808
G1 X138.968 Y104.373 E6.97228
G1 X138.886 Y105.052 E7.02141
G1 X138.88 Y105.103 E7.0251
G1 X138.798 Y105.711 E7.06918
G1 X138.782 Y105.819 E7.07702
G1 X138.643 Y106.663 E7.13847
G1 X138.632 Y106.722 E7.14278
G1 X138.518 Y107.35 E7.18864
G1 X138.509 Y107.4 E7.19229
G1 X138.392 Y107.998 E7.23606
G1 X138.369 Y108.108 E7.24414
G1 X138.17 Y108.984 E7.30867
G1 X138.157 Y109.04 E7.3128
G1 X138.011 Y109.64 E7.35717
G1 X137.997 Y109.695 E7.36124
G1 X137.841 Y110.296 E7.40585
G1 X137.812 Y110.401 E7.41368
G1 X137.571 Y111.229 E7.47563
G1 X137.555 Y111.282 E7.47961
G1 X137.357 Y111.926 E7.52801
G1 X137.338 Y111.985 E7.53246
G1 X137.167 Y112.51 E7.57213
G1 X137.134 Y112.608 E7.57956
G1 X136.815 Y113.502 E7.64775
G1 X136.793 Y113.56 E7.65221
G1 X136.592 Y114.095 E7.69327
G1 X136.573 Y114.145 E7.69711
G1 X136.337 Y114.747 E7.74356
G1 X136.297 Y114.846 E7.75123
G1 X135.959 Y115.64 E7.81323
G1 X135.932 Y115.702 E7.81809
G1 X135.678 Y116.27 E7.86279
G1 X135.659 Y116.311 E7.86604
G1 X135.397 Y116.878 E7.91091
G1 X135.348 Y116.98 E7.91904
G1 X134.945 Y117.787 E7.98384
G1 X134.92 Y117.837 E7.98786
G1 X134.652 Y118.354 E8.02969
G1 X134.628 Y118.399 E8.03336
G1 X134.313 Y118.987 E8.08128
G1 X134.256 Y119.09 E8.08974
G1 X133.842 Y119.807 E8.14922
G1 X133.815 Y119.852 E8.15299
G1 X133.49 Y120.397 E8.19858
G1 X133.46 Y120.447 E8.20277
G1 X133.122 Y120.994 E8.24896
G1 X133.064 Y121.085 E8.25671
G1 X132.59 Y121.805 E8.31864
G1 X132.558 Y121.853 E8.32279
G1 X132.182 Y122.405 E8.37077
G1 X132.15 Y122.45 E8.37474
G1 X131.821 Y122.918 E8.41583
G1 X131.755 Y123.01 E8.42397
G1 X131.208 Y123.74 E8.4895
G1 X131.176 Y123.782 E8.4933
G1 X130.821 Y124.242 E8.53504
G1 X130.788 Y124.284 E8.53888
G1 X130.384 Y124.792 E8.58551
G1 X130.312 Y124.88 E8.59368
G1 X129.756 Y125.537 E8.65551
G1 X129.716 Y125.583 E8.65989
G1 X129.325 Y126.03 E8.70255
G1 X129.29 Y126.07 E8.70637
G1 X128.839 Y126.571 E8.7548
G1 X128.767 Y126.648 E8.76237
G1 X128.144 Y127.302 E8.82726
G1 X128.098 Y127.349 E8.83199
G1 X127.714 Y127.738 E8.87126
G1 X127.68 Y127.772 E8.87471
G1 X127.21 Y128.236 E8.92216
G1 X127.127 Y128.316 E8.93044
G1 X126.46 Y128.935 E8.99582
G1 X126.42 Y128.972 E8.99973
G1 X125.967 Y129.38 E9.04353
G1 X125.93 Y129.413 E9.04709
G1 X125.459 Y129.826 E9.09209
G1 X125.369 Y129.902 E9.10056
G1 X124.726 Y130.431 E9.16038
G1 X124.681 Y130.467 E9.16452
G1 X124.174 Y130.871 E9.21109
G1 X124.138 Y130.9 E9.21441
G1 X123.65 Y131.279 E9.2588
G1 X123.558 Y131.348 E9.26706
G1 X122.844 Y131.868 E9.33052
G1 X122.795 Y131.903 E9.33485
G1 X122.275 Y132.269 E9.38053
G1 X122.232 Y132.299 E9.3843
G1 X121.724 Y132.646 E9.42849
G1 X121.63 Y132.708 E9.43658
G1 X120.901 Y133.174 E9.49874
G1 X120.853 Y133.204 E9.50281
G1 X120.311 Y133.539 E9.54858
G1 X120.265 Y133.568 E9.55249
G1 X119.73 Y133.888 E9.59728
G1 X119.633 Y133.943 E9.60529
G1 X118.884 Y134.361 E9.66691
G1 X118.835 Y134.388 E9.67093
G1 X118.28 Y134.687 E9.71622
G1 X118.235 Y134.711 E9.71988
G1 X117.667 Y135.007 E9.7659
G1 X117.563 Y135.059 E9.77425
G1 X116.795 Y135.429 E9.8355
G1 X116.741 Y135.454 E9.83977
G1 X116.142 Y135.731 E9.88718
G1 X116.097 Y135.752 E9.89075
G1 X115.537 Y136.002 E9.93481
G1 X115.438 Y136.045 E9.94256
G1 X114.705 Y136.347 E9.99952
G1 X114.648 Y136.37 E10.00393
G1 X113.991 Y136.628 E10.05464
G1 X113.937 Y136.648 E10.05878
G1 X113.369 Y136.861 E10.10236
G1 X113.269 Y136.897 E10.11
G1 X112.42 Y137.188 E10.17447
G1 X112.367 Y137.206 E10.17849
G1 X111.821 Y137.384 E10.21975
G1 X111.769 Y137.4 E10.22366
G1 X111.127 Y137.599 E10.27195
G1 X111.02 Y137.631 E10.27997
G1 X110.212 Y137.855 E10.34021
G1 X110.152 Y137.871 E10.34467
G1 X109.52 Y138.035 E10.39158
G1 X109.47 Y138.048 E10.39529
G1 X108.873 Y138.194 E10.43944
G1 X108.769 Y138.217 E10.44709
G1 X107.902 Y138.403 E10.5108
G1 X107.829 Y138.418 E10.51615
G1 X107.245 Y138.531 E10.55889
G1 X107.204 Y138.539 E10.56189
G1 X106.545 Y138.659 E10.61001
G1 X106.436 Y138.677 E10.61795
G1 X105.611 Y138.802 E10.67789
G1 X105.56 Y138.809 E10.68159
G1 X104.905 Y138.899 E10.72909
G1 X104.843 Y138.907 E10.73358
G1 X104.261 Y138.977 E10.77569
G1 X104.156 Y138.989 E10.78329
G1 X103.271 Y139.07 E10.84713
G1 X103.207 Y139.075 E10.85174
G1 X102.572 Y139.122 E10.89749
G1 X102.519 Y139.125 E10.9013
G1 X101.882 Y139.163 E10.94715
G1 X101.776 Y139.168 E10.95477
G1 X100.974 Y139.193 E11.01242
G1 X100.918 Y139.195 E11.01644
G1 X100.232 Y139.206 E11.06573
G1 X99.553 Y139.206 E11.11451
G1 X99.443 Y139.204 E11.12242
G1 X98.597 Y139.179 E11.18322
G1 X98.543 Y139.177 E11.1871
G1 X97.93 Y139.15 E11.23118
G1 X97.875 Y139.148 E11.23514
G1 X97.197 Y139.108 E11.28393
G1 X97.086 Y139.099 E11.29193
G1 X96.255 Y139.025 E11.35187
G1 X96.199 Y139.02 E11.35591
G1 X95.567 Y138.954 E11.40156
G1 X95.508 Y138.947 E11.40583
G1 X94.86 Y138.869 E11.45272
G1 X94.754 Y138.855 E11.4604
G1 X93.953 Y138.735 E11.51859
G1 X93.895 Y138.726 E11.5228
G1 X93.238 Y138.617 E11.57065
G1 X93.185 Y138.608 E11.57451
G1 X92.577 Y138.498 E11.6189
G1 X92.469 Y138.477 E11.6268
G1 X91.58 Y138.289 E11.69208
G1 X91.52 Y138.275 E11.69651
G1 X90.948 Y138.144 E11.73867
G1 X90.901 Y138.133 E11.74214
G1 X90.258 Y137.977 E11.78967
G1 X90.15 Y137.949 E11.79769
G1 X89.36 Y137.732 E11.85654
G1 X89.3 Y137.715 E11.86102
G1 X88.699 Y137.539 E11.90601
G1 X88.652 Y137.525 E11.90954
G1 X88.007 Y137.327 E11.95801
G1 X87.899 Y137.292 E11.96616
G1 X87.127 Y137.029 E12.02476
G1 X87.072 Y137.01 E12.02894
G1 X86.436 Y136.782 E12.07748
G1 X86.388 Y136.764 E12.08116
G1 X85.821 Y136.552 E12.12465
G1 X85.715 Y136.511 E12.13281
G1 X84.901 Y136.178 E12.196
G1 X84.845 Y136.155 E12.20035
G1 X84.273 Y135.91 E12.24505
G1 X84.226 Y135.889 E12.24875
G1 X83.653 Y135.634 E12.29381
G1 X83.554 Y135.588 E12.30165
G1 X82.757 Y135.205 E12.36517
G1 X82.704 Y135.179 E12.36942
G1 X82.138 Y134.896 E12.41488
G1 X82.091 Y134.872 E12.41867
G1 X81.568 Y134.601 E12.46099
G1 X81.472 Y134.55 E12.4688
G1 X80.682 Y134.111 E12.53373
G1 X80.629 Y134.08 E12.53814
G1 X80.113 Y133.782 E12.58095
G1 X80.068 Y133.756 E12.58468
G1 X79.523 Y133.431 E12.63027
G1 X79.426 Y133.372 E12.63842
G1 X78.671 Y132.89 E12.70277
G1 X78.628 Y132.862 E12.70646
G1 X78.087 Y132.506 E12.75299
G1 X78.037 Y132.472 E12.75733
G1 X77.541 Y132.134 E12.80045
G1 X77.452 Y132.072 E12.80824
G1 X76.801 Y131.6 E12.86601
G1 X76.129 Y131.096 E12.92636
G1 X75.679 Y130.749 E12.96718
G1 X75.589 Y130.677 E12.97546
G1 X74.926 Y130.132 E13.03712
G1 X74.883 Y130.096 E13.04115
G1 X74.366 Y129.658 E13.08983
G1 X74.326 Y129.624 E13.0936
G1 X73.896 Y129.249 E13.13459
G1 X73.812 Y129.173 E13.14273
G1 X73.142 Y128.552 E13.20836
G1 X73.102 Y128.514 E13.21232
G1 X72.681 Y128.112 E13.25414
G1 X72.642 Y128.074 E13.25806
G1 X72.161 Y127.601 E13.30652
G1 X72.081 Y127.521 E13.31465
G1 X71.503 Y126.917 E13.37471
G1 X71.463 Y126.874 E13.37893
G1 X71.043 Y126.421 E13.42331
G1 X71.008 Y126.383 E13.42702
G1 X70.568 Y125.895 E13.47422
G1 X70.496 Y125.813 E13.48206
G1 X69.941 Y125.16 E13.54363
G1 X69.901 Y125.112 E13.54812
G1 X69.51 Y124.636 E13.59237
G1 X69.478 Y124.596 E13.59606
G1 X69.051 Y124.061 E13.64523
G1 X68.986 Y123.977 E13.65286
G1 X68.52 Y123.358 E13.70853
G1 X68.483 Y123.308 E13.71299
G1 X68.079 Y122.752 E13.76237
G1 X68.045 Y122.705 E13.76654
G1 X67.701 Y122.216 E13.80949
G1 X67.644 Y122.132 E13.81678
G1 X67.138 Y121.369 E13.88256
G1 X67.101 Y121.313 E13.88738
G1 X66.772 Y120.797 E13.93134
G1 X66.746 Y120.754 E13.93495
G1 X66.423 Y120.232 E13.97905
G1 X66.365 Y120.135 E13.98717
G1 X65.929 Y119.38 E14.04981
G1 X65.903 Y119.335 E14.05354
G1 X65.6 Y118.793 E14.09815
G1 X65.572 Y118.743 E14.10227
G1 X65.267 Y118.177 E14.14846
G1 X65.215 Y118.076 E14.15662
G1 X64.811 Y117.268 E14.22152
G1 X64.544 Y116.716 E14.26557
G1 X64.517 Y116.659 E14.2701
G1 X64.242 Y116.065 E14.31713
G1 X64.199 Y115.968 E14.32475
G1 X63.858 Y115.173 E14.3869
G1 X63.837 Y115.123 E14.39079
G1 X63.597 Y114.54 E14.43609
G1 X63.344 Y113.896 E14.4858
G1 X63.304 Y113.791 E14.49387
G1 X63.022 Y113.004 E14.55393
G1 X63.004 Y112.952 E14.55788
G1 X62.788 Y112.32 E14.60586
G1 X62.769 Y112.264 E14.61011
G1 X62.578 Y111.675 E14.6546
G1 X62.548 Y111.578 E14.66189
G1 X62.313 Y110.779 E14.72172
G1 X62.296 Y110.718 E14.72627
G1 X62.122 Y110.087 E14.7733
G1 X62.107 Y110.032 E14.77739
G1 X61.949 Y109.423 E14.82259
G1 X61.925 Y109.324 E14.82991
G1 X61.732 Y108.486 E14.89169
G1 X61.718 Y108.422 E14.8964
G1 X61.589 Y107.813 E14.94112
G1 X61.579 Y107.766 E14.94457
G1 X61.452 Y107.126 E14.99145
G1 X61.432 Y107.015 E14.99955
G1 X61.295 Y106.195 E15.05928
G1 X61.286 Y106.137 E15.06349
G1 X61.184 Y105.461 E15.11261
G1 X61.176 Y105.408 E15.11646
