;FLAVOR:Marlin
;TIME:4740
;Filament used: 7.54003m
;Layer height: 0.2
;MINX:78.537
;MINY:60.906
;MINZ:0.3
;MAXX:121.362
;MAXY:139.102
;MAXZ:36.9
;Generated with Cura_SteamEngine 4.3.0
M140 S60
M105
M190 S60
M104 S210
M105
M109 S210
M82 ;absolute extrusion mode
G28 ;Home
G29; auto bed leveling
G1 Z15.0 F6000 ;Move the platform down 15mm
;Prime the extruder
G92 E0
G1 F200 E3
G92 E0
G92 E0
G92 E0
G1 F1500 E-6.5
;LAYER_COUNT:184
;LAYER:0
M107
G0 F3600 X79.3 Y62.63 Z0.3
;TYPE:SKIRT
G1 F1500 E0
G1 F1800 X79.724 Y62.117 E0.04781
G1 X79.832 Y62.008 E0.05884
G1 X80.244 Y61.65 E0.09805
G1 X80.702 Y61.355 E0.13719
G1 X81.2 Y61.131 E0.17642
G1 X81.724 Y60.983 E0.21554
G1 X82.516 Y60.906 E0.2727
G1 X83.413 Y60.916 E0.33715
G1 X83.541 Y60.92 E0.34635
G1 X84.375 Y60.958 E0.40633
G1 X84.458 Y60.963 E0.4123
G1 X84.694 Y60.979 E0.42929
G1 X84.732 Y60.981 E0.43203
G1 X85.808 Y61.065 E0.50957
G1 X85.864 Y61.07 E0.5136
G1 X86.452 Y61.125 E0.55603
G1 X86.56 Y61.137 E0.56384
G1 X87.423 Y61.243 E0.6263
G1 X87.478 Y61.25 E0.63029
G1 X87.898 Y61.308 E0.66075
G1 X87.95 Y61.316 E0.66453
G1 X88.677 Y61.427 E0.71736
G1 X88.867 Y61.46 E0.73122
G1 X91.105 Y61.921 E0.89537
G1 X91.208 Y61.944 E0.90296
G1 X92.005 Y62.132 E0.96178
G1 X92.113 Y62.16 E0.9698
G1 X92.953 Y62.385 E1.03227
G1 X93.063 Y62.416 E1.04049
G1 X94.003 Y62.699 E1.11101
G1 X94.061 Y62.717 E1.11537
G1 X94.544 Y62.871 E1.15179
G1 X94.658 Y62.909 E1.16043
G1 X95.698 Y63.278 E1.23971
G1 X95.755 Y63.299 E1.24407
G1 X96.114 Y63.433 E1.2716
G1 X96.166 Y63.453 E1.2756
G1 X96.919 Y63.747 E1.33368
G1 X97.013 Y63.785 E1.34096
G1 X97.489 Y63.986 E1.37808
G1 X97.528 Y64.003 E1.38114
G1 X98.26 Y64.322 E1.4385
G1 X98.309 Y64.343 E1.44233
G1 X98.903 Y64.612 E1.48918
G1 X99.002 Y64.659 E1.49705
G1 X99.73 Y65.015 E1.55527
G1 X99.78 Y65.04 E1.55929
G1 X100.176 Y65.241 E1.59119
G1 X100.238 Y65.273 E1.5962
G1 X101.19 Y65.779 E1.67366
G1 X101.282 Y65.83 E1.68122
G1 X101.961 Y66.216 E1.73733
G1 X102.012 Y66.245 E1.74154
G1 X102.46 Y66.509 E1.7789
G1 X102.554 Y66.567 E1.78683
G1 X103.403 Y67.102 E1.85893
G1 X103.459 Y67.137 E1.86367
G1 X103.894 Y67.422 E1.90103
G1 X103.933 Y67.449 E1.90444
G1 X104.567 Y67.876 E1.95936
G1 X104.653 Y67.935 E1.96685
G1 X105.06 Y68.226 E2.00279
G1 X105.091 Y68.248 E2.00553
G1 X105.555 Y68.587 E2.04681
G1 X105.599 Y68.621 E2.0508
G1 X106.107 Y69.004 E2.09651
G1 X106.192 Y69.069 E2.1042
G1 X106.867 Y69.609 E2.1663
G1 X106.916 Y69.649 E2.17084
G1 X107.277 Y69.948 E2.20452
G1 X107.313 Y69.979 E2.20793
G1 X107.953 Y70.523 E2.26828
G1 X108.026 Y70.586 E2.2752
G1 X108.353 Y70.879 E2.30675
G1 X108.376 Y70.899 E2.30894
G1 X108.924 Y71.398 E2.36218
G1 X108.965 Y71.437 E2.36625
G1 X109.374 Y71.821 E2.40655
G1 X109.457 Y71.901 E2.41483
G1 X110.157 Y72.6 E2.4859
G1 X110.204 Y72.648 E2.49073
G1 X110.399 Y72.85 E2.5109
G1 X110.428 Y72.88 E2.5139
G1 X111.089 Y73.58 E2.58306
G1 X111.161 Y73.659 E2.59074
G1 X111.333 Y73.852 E2.60932
G1 X111.35 Y73.871 E2.61115
G1 X111.881 Y74.475 E2.66892
G1 X111.916 Y74.515 E2.67274
G1 X112.325 Y74.994 E2.71799
G1 X112.392 Y75.075 E2.72554
G1 X112.892 Y75.695 E2.78277
G1 X112.932 Y75.746 E2.78742
G1 X113.268 Y76.178 E2.82674
G1 X113.298 Y76.216 E2.83022
G1 X113.853 Y76.949 E2.89627
G1 X113.908 Y77.024 E2.90295
G1 X114.069 Y77.248 E2.92277
G1 X114.094 Y77.284 E2.92592
G1 X114.469 Y77.819 E2.97286
G1 X114.494 Y77.855 E2.97601
G1 X114.764 Y78.25 E3.01038
G1 X114.834 Y78.357 E3.01956
G1 X115.427 Y79.292 E3.09911
G1 X115.461 Y79.345 E3.10363
G1 X115.72 Y79.769 E3.13933
G1 X115.749 Y79.818 E3.14342
G1 X116.215 Y80.608 E3.20931
G1 X116.257 Y80.682 E3.21542
G1 X116.384 Y80.909 E3.23411
G1 X116.402 Y80.94 E3.23669
G1 X116.723 Y81.527 E3.28475
G1 X116.746 Y81.57 E3.28825
G1 X117.056 Y82.155 E3.33582
G1 X117.106 Y82.253 E3.34372
G1 X117.508 Y83.069 E3.40907
G1 X117.533 Y83.121 E3.41322
G1 X117.755 Y83.59 E3.45049
G1 X117.781 Y83.645 E3.45487
G1 X118.046 Y84.229 E3.50094
G1 X118.086 Y84.321 E3.50815
G1 X118.387 Y85.035 E3.56381
G1 X118.408 Y85.086 E3.56777
G1 X118.558 Y85.457 E3.59652
G1 X118.578 Y85.508 E3.60046
G1 X118.895 Y86.327 E3.66355
G1 X118.926 Y86.409 E3.66985
G1 X119.015 Y86.656 E3.68871
G1 X119.025 Y86.686 E3.69098
G1 X119.241 Y87.302 E3.73788
G1 X119.258 Y87.351 E3.74161
G1 X119.439 Y87.891 E3.78252
G1 X119.476 Y88.005 E3.79113
G1 X119.766 Y88.973 E3.86373
G1 X119.784 Y89.036 E3.86844
G1 X119.958 Y89.656 E3.9147
G1 X119.971 Y89.705 E3.91834
G1 X120.22 Y90.641 E3.98792
G1 X120.249 Y90.755 E3.99637
G1 X120.468 Y91.698 E4.06592
G1 X120.478 Y91.747 E4.06952
G1 X120.6 Y92.306 E4.11062
G1 X120.625 Y92.429 E4.11964
G1 X120.814 Y93.461 E4.19501
G1 X120.826 Y93.532 E4.20019
G1 X120.881 Y93.869 E4.22472
G1 X120.888 Y93.911 E4.22778
G1 X121.025 Y94.815 E4.29346
G1 X121.041 Y94.932 E4.30195
G1 X121.14 Y95.764 E4.36214
G1 X121.148 Y95.835 E4.36727
G1 X121.217 Y96.528 E4.41731
G1 X121.226 Y96.633 E4.42488
G1 X121.282 Y97.419 E4.48149
G1 X121.285 Y97.476 E4.48559
G1 X121.317 Y98.051 E4.52696
G1 X121.32 Y98.105 E4.53085
G1 X121.351 Y98.859 E4.58506
G1 X121.354 Y98.961 E4.59239
G1 X121.361 Y99.47 E4.62896
G1 X121.361 Y99.516 E4.63227
G1 X121.362 Y100.228 E4.68342
G1 X121.362 Y100.28 E4.68716
G1 X121.353 Y100.999 E4.73881
G1 X121.35 Y101.1 E4.74607
G1 X121.322 Y101.803 E4.79662
G1 X121.32 Y101.856 E4.80043
G1 X121.292 Y102.373 E4.83763
G1 X121.288 Y102.426 E4.84144
G1 X121.255 Y102.909 E4.87622
G1 X121.245 Y103.031 E4.88502
G1 X121.12 Y104.263 E4.97398
G1 X121.112 Y104.338 E4.9794
G1 X121.034 Y104.976 E5.02558
G1 X121.024 Y105.048 E5.0308
G1 X120.78 Y106.766 E5.15546
G1 X120.759 Y106.896 E5.16492
G1 X120.705 Y107.199 E5.18703
G1 X120.685 Y107.303 E5.19464
G1 X120.487 Y108.256 E5.26457
G1 X120.473 Y108.32 E5.26928
G1 X120.352 Y108.855 E5.30868
G1 X120.342 Y108.901 E5.31207
G1 X120.169 Y109.623 E5.3654
G1 X120.144 Y109.72 E5.3726
G1 X119.982 Y110.324 E5.41753
G1 X119.968 Y110.374 E5.42126
G1 X119.843 Y110.815 E5.45419
G1 X119.829 Y110.862 E5.45771
G1 X119.629 Y111.534 E5.50808
G1 X119.6 Y111.63 E5.51528
G1 X119.367 Y112.342 E5.56911
G1 X119.353 Y112.381 E5.57208
G1 X119.19 Y112.861 E5.6085
G1 X119.175 Y112.907 E5.61198
G1 X118.96 Y113.514 E5.65824
G1 X118.92 Y113.619 E5.66631
G1 X118.601 Y114.44 E5.72959
G1 X118.578 Y114.499 E5.73414
G1 X118.427 Y114.869 E5.76285
G1 X118.407 Y114.917 E5.76658
G1 X118.066 Y115.72 E5.82926
G1 X118.028 Y115.806 E5.83601
G1 X117.837 Y116.226 E5.86916
G1 X117.819 Y116.266 E5.87231
G1 X117.521 Y116.901 E5.92271
G1 X117.499 Y116.947 E5.92637
G1 X117.184 Y117.595 E5.97813
G1 X117.138 Y117.687 E5.98552
G1 X116.81 Y118.317 E6.03655
G1 X116.788 Y118.358 E6.03989
G1 X116.598 Y118.712 E6.06876
G1 X116.573 Y118.758 E6.07252
G1 X116.19 Y119.448 E6.12921
G1 X116.137 Y119.539 E6.13678
G1 X115.823 Y120.069 E6.18103
G1 X115.799 Y120.11 E6.18445
G1 X115.474 Y120.643 E6.2293
G1 X115.448 Y120.685 E6.23284
G1 X115.054 Y121.312 E6.28604
G1 X114.996 Y121.402 E6.29374
G1 X114.618 Y121.967 E6.34257
G1 X114.586 Y122.013 E6.3466
G1 X114.331 Y122.382 E6.37882
G1 X114.302 Y122.424 E6.38249
G1 X113.882 Y123.014 E6.43452
G1 X113.822 Y123.095 E6.44176
G1 X113.465 Y123.569 E6.48439
G1 X113.434 Y123.61 E6.48809
G1 X112.996 Y124.175 E6.53944
G1 X112.965 Y124.215 E6.54308
G1 X112.537 Y124.752 E6.59241
G1 X112.469 Y124.835 E6.60012
G1 X111.965 Y125.431 E6.6562
G1 X111.927 Y125.475 E6.66037
G1 X111.57 Y125.884 E6.69938
G1 X111.532 Y125.927 E6.7035
G1 X110.999 Y126.519 E6.76073
G1 X110.94 Y126.583 E6.76698
G1 X110.607 Y126.936 E6.80184
G1 X110.574 Y126.971 E6.8053
G1 X110.117 Y127.443 E6.8525
G1 X110.079 Y127.481 E6.85636
G1 X109.545 Y128.017 E6.91072
G1 X109.475 Y128.085 E6.91773
G1 X108.995 Y128.542 E6.96534
G1 X108.957 Y128.578 E6.9691
G1 X108.648 Y128.864 E6.99935
G1 X108.61 Y128.899 E7.00306
G1 X108.09 Y129.367 E7.05332
G1 X108.007 Y129.439 E7.06122
G1 X107.467 Y129.897 E7.11208
G1 X107.43 Y129.928 E7.11555
G1 X106.988 Y130.293 E7.15673
G1 X106.941 Y130.332 E7.16112
G1 X106.31 Y130.836 E7.21914
G1 X106.233 Y130.895 E7.22611
G1 X105.752 Y131.259 E7.26944
G1 X105.124 Y131.722 E7.3255
G1 X105.081 Y131.753 E7.32931
G1 X104.529 Y132.148 E7.37807
G1 X104.444 Y132.207 E7.3855
G1 X103.857 Y132.603 E7.43637
G1 X103.816 Y132.63 E7.4399
G1 X103.456 Y132.866 E7.47083
G1 X103.412 Y132.895 E7.47461
G1 X102.822 Y133.27 E7.52483
G1 X102.738 Y133.322 E7.53193
G1 X102.16 Y133.668 E7.58033
G1 X102.114 Y133.695 E7.58416
G1 X101.774 Y133.892 E7.61239
G1 X101.727 Y133.919 E7.61628
G1 X101.152 Y134.241 E7.66363
G1 X101.059 Y134.291 E7.67122
G1 X100.4 Y134.636 E7.72465
G1 X100.356 Y134.658 E7.72819
G1 X99.529 Y135.077 E7.79479
G1 X99.48 Y135.102 E7.79874
G1 X98.761 Y135.453 E7.85623
G1 X98.673 Y135.495 E7.86323
G1 X98.16 Y135.729 E7.90374
G1 X98.068 Y135.769 E7.91095
G1 X97.073 Y136.191 E7.98859
G1 X96.988 Y136.226 E7.9952
G1 X96.664 Y136.354 E8.02022
G1 X96.622 Y136.37 E8.02345
G1 X95.764 Y136.697 E8.08942
G1 X95.714 Y136.716 E8.09326
G1 X95.1 Y136.94 E8.14021
G1 X95.006 Y136.973 E8.14737
G1 X94.343 Y137.195 E8.1976
G1 X94.285 Y137.214 E8.20199
G1 X93.631 Y137.421 E8.25127
G1 X93.581 Y137.436 E8.25502
G1 X92.99 Y137.614 E8.29936
G1 X92.869 Y137.648 E8.30839
G1 X91.706 Y137.956 E8.39482
G1 X91.613 Y137.98 E8.40172
G1 X90.947 Y138.138 E8.4509
G1 X90.822 Y138.165 E8.46009
G1 X89.754 Y138.38 E8.53835
G1 X89.667 Y138.396 E8.54471
G1 X88.744 Y138.559 E8.61204
G1 X88.66 Y138.573 E8.61816
G1 X88.392 Y138.614 E8.63764
G1 X88.351 Y138.62 E8.64062
G1 X87.391 Y138.756 E8.71027
G1 X87.342 Y138.763 E8.71383
G1 X86.671 Y138.849 E8.76243
G1 X86.566 Y138.861 E8.77002
G1 X85.861 Y138.931 E8.82092
G1 X85.808 Y138.936 E8.82474
G1 X85.197 Y138.988 E8.8688
G1 X85.143 Y138.992 E8.87269
G1 X84.376 Y139.046 E8.92793
G1 X84.258 Y139.052 E8.93642
G1 X83.324 Y139.088 E9.00357
G1 X83.24 Y139.091 E9.0096
G1 X82.542 Y139.102 E9.05976
G1 X81.997 Y139.07 E9.09898
G1 X81.464 Y138.96 E9.13808
G1 X80.952 Y138.772 E9.17726
G1 X80.473 Y138.512 E9.21642
G1 X79.864 Y138.024 E9.27248
G1 X79.75 Y137.911 E9.28401
G1 X79.392 Y137.5 E9.32317
G1 X79.098 Y137.041 E9.36233
G1 X78.874 Y136.544 E9.40149
G1 X78.725 Y136.019 E9.4407
G1 X78.649 Y135.324 E9.49093
G1 X78.638 Y134.578 E9.54453
G1 X78.638 Y134.521 E9.54862
G1 X78.641 Y130.03 E9.87127
G1 X78.585 Y126.69 E10.11125
G1 X78.542 Y125.429 E10.2019
G1 X78.54 Y125.337 E10.20851
G1 X78.537 Y125.022 E10.23114
G1 X78.537 Y109.5 E11.34627
G1 X78.553 Y108.504 E11.41783
G1 X78.562 Y108.299 E11.43257
G1 X78.651 Y107.054 E11.52225
G1 X78.652 Y107.054 E11.52232
G1 X78.814 Y104.333 E11.71815
G1 X78.899 Y101.613 E11.91365
G1 X78.908 Y98.888 E12.10942
G1 X78.838 Y96.164 E12.30518
G1 X78.692 Y93.418 E12.50274
G1 X78.57 Y91.84 E12.61644
G1 X78.561 Y91.676 E12.62824
G1 X78.548 Y91.279 E12.65678
G1 X78.546 Y91.159 E12.6654
G1 X78.537 Y75.183 E13.81315
G1 X78.537 Y75.126 E13.81724
G1 X78.547 Y74.445 E13.86617
G1 X78.548 Y74.421 E13.8679
G1 X78.637 Y70.232 E14.16891
G1 X78.637 Y65.351 E14.51957
G1 X78.647 Y64.68 E14.56778
G1 X78.695 Y64.137 E14.60695
G1 X78.822 Y63.606 E14.64617
G1 X79.025 Y63.1 E14.68534
G1 X79.3 Y62.63 E14.72446
G0 F3600 X79.775 Y62.791
G1 F1800 X80.065 Y62.455 E14.75635
G1 X80.173 Y62.346 E14.76737
G1 X80.559 Y62.013 E14.80399
G1 X80.991 Y61.746 E14.84048
G1 X81.46 Y61.549 E14.87702
G1 X81.955 Y61.428 E14.91363
G1 X82.511 Y61.386 E14.95369
G1 X83.408 Y61.396 E15.01814
G1 X83.519 Y61.399 E15.02611
G1 X84.353 Y61.437 E15.08609
G1 X84.425 Y61.441 E15.09127
G1 X84.661 Y61.457 E15.10827
G1 X84.694 Y61.46 E15.11065
G1 X85.77 Y61.544 E15.18818
G1 X85.82 Y61.548 E15.19179
G1 X86.408 Y61.603 E15.23422
G1 X86.501 Y61.613 E15.24094
G1 X87.364 Y61.719 E15.3034
G1 X87.412 Y61.725 E15.30688
G1 X87.832 Y61.783 E15.33734
G1 X87.878 Y61.79 E15.34068
G1 X88.605 Y61.901 E15.39351
G1 X88.77 Y61.931 E15.40556
G1 X91.008 Y62.392 E15.56972
G1 X91.098 Y62.412 E15.57634
G1 X91.895 Y62.6 E15.63517
G1 X91.989 Y62.623 E15.64212
G1 X92.829 Y62.848 E15.7046
G1 X92.925 Y62.876 E15.71178
G1 X93.865 Y63.159 E15.78231
G1 X93.915 Y63.174 E15.78606
G1 X94.398 Y63.328 E15.82248
G1 X94.497 Y63.362 E15.83
G1 X95.537 Y63.731 E15.90928
G1 X95.587 Y63.749 E15.9131
G1 X95.946 Y63.883 E15.94063
G1 X95.991 Y63.9 E15.94408
G1 X96.744 Y64.194 E16.00216
G1 X96.826 Y64.227 E16.00851
G1 X97.302 Y64.428 E16.04563
G1 X97.336 Y64.443 E16.0483
G1 X98.068 Y64.762 E16.10566
G1 X98.111 Y64.781 E16.10904
G1 X98.705 Y65.05 E16.15589
G1 X98.791 Y65.09 E16.1627
G1 X99.519 Y65.446 E16.22092
G1 X99.562 Y65.468 E16.22439
G1 X99.958 Y65.669 E16.25629
G1 X100.013 Y65.697 E16.26073
G1 X100.965 Y66.203 E16.33818
G1 X101.045 Y66.247 E16.34474
G1 X101.724 Y66.633 E16.40085
G1 X101.768 Y66.659 E16.40452
G1 X102.216 Y66.923 E16.44188
G1 X102.298 Y66.973 E16.44878
G1 X103.147 Y67.508 E16.52088
G1 X103.196 Y67.539 E16.52504
G1 X103.631 Y67.824 E16.5624
G1 X103.665 Y67.847 E16.56535
G1 X104.299 Y68.274 E16.62027
G1 X104.373 Y68.325 E16.62672
G1 X104.78 Y68.616 E16.66267
G1 X104.807 Y68.636 E16.66508
G1 X105.271 Y68.975 E16.70636
G1 X105.311 Y69.004 E16.70991
G1 X105.819 Y69.387 E16.75562
G1 X105.892 Y69.444 E16.76227
G1 X106.567 Y69.984 E16.82438
G1 X106.61 Y70.019 E16.82836
G1 X106.971 Y70.318 E16.86203
G1 X107.002 Y70.344 E16.86494
G1 X107.642 Y70.888 E16.92529
G1 X107.706 Y70.944 E16.9314
G1 X108.033 Y71.237 E16.96294
G1 X108.052 Y71.254 E16.96477
G1 X108.6 Y71.753 E17.01802
G1 X108.637 Y71.787 E17.02163
G1 X109.046 Y72.171 E17.06193
G1 X109.117 Y72.24 E17.06904
G1 X109.817 Y72.939 E17.14011
G1 X109.859 Y72.982 E17.14443
G1 X110.054 Y73.184 E17.1646
G1 X110.079 Y73.21 E17.16719
G1 X110.74 Y73.91 E17.23636
G1 X110.803 Y73.978 E17.24302
G1 X110.975 Y74.171 E17.26159
G1 X110.989 Y74.188 E17.26317
G1 X111.52 Y74.792 E17.32095
G1 X111.551 Y74.827 E17.32431
G1 X111.96 Y75.306 E17.36956
G1 X112.018 Y75.376 E17.37609
G1 X112.518 Y75.996 E17.43331
G1 X112.554 Y76.041 E17.43745
G1 X112.89 Y76.473 E17.47677
G1 X112.915 Y76.506 E17.47974
G1 X113.47 Y77.239 E17.5458
G1 X113.518 Y77.304 E17.5516
G1 X113.679 Y77.528 E17.57142
G1 X113.701 Y77.559 E17.57415
G1 X114.076 Y78.094 E17.62109
G1 X114.098 Y78.126 E17.62388
G1 X114.368 Y78.521 E17.65825
G1 X114.429 Y78.614 E17.66624
G1 X115.022 Y79.549 E17.74578
G1 X115.051 Y79.595 E17.74969
G1 X115.31 Y80.019 E17.78539
G1 X115.336 Y80.062 E17.789
G1 X115.802 Y80.852 E17.85489
G1 X115.839 Y80.916 E17.8602
G1 X115.966 Y81.143 E17.87889
G1 X115.981 Y81.17 E17.88111
G1 X116.302 Y81.757 E17.92917
G1 X116.322 Y81.795 E17.93226
G1 X116.632 Y82.38 E17.97982
G1 X116.675 Y82.465 E17.98666
G1 X117.077 Y83.281 E18.05201
G1 X117.099 Y83.327 E18.05568
G1 X117.321 Y83.796 E18.09295
G1 X117.343 Y83.843 E18.09668
G1 X117.608 Y84.427 E18.14276
G1 X117.644 Y84.507 E18.14906
G1 X117.945 Y85.221 E18.20473
G1 X117.963 Y85.266 E18.20821
G1 X118.113 Y85.637 E18.23696
G1 X118.131 Y85.681 E18.24037
G1 X118.448 Y86.5 E18.30346
G1 X118.474 Y86.572 E18.30896
G1 X118.563 Y86.819 E18.32783
G1 X118.572 Y86.845 E18.3298
G1 X118.788 Y87.461 E18.3767
G1 X118.803 Y87.503 E18.3799
G1 X118.984 Y88.043 E18.42082
G1 X119.016 Y88.143 E18.42836
G1 X119.306 Y89.111 E18.50096
G1 X119.321 Y89.166 E18.50505
G1 X119.495 Y89.786 E18.55132
G1 X119.507 Y89.828 E18.55445
G1 X119.756 Y90.764 E18.62404
G1 X119.781 Y90.864 E18.63144
G1 X120 Y91.807 E18.70099
G1 X120.009 Y91.849 E18.70408
G1 X120.131 Y92.408 E18.74518
G1 X120.153 Y92.515 E18.75303
G1 X120.342 Y93.547 E18.8284
G1 X120.353 Y93.609 E18.83293
G1 X120.408 Y93.946 E18.85746
G1 X120.413 Y93.983 E18.86014
G1 X120.55 Y94.887 E18.92583
G1 X120.564 Y94.989 E18.93323
G1 X120.663 Y95.821 E18.99342
G1 X120.67 Y95.883 E18.9979
G1 X120.739 Y96.576 E19.04793
G1 X120.747 Y96.667 E19.0545
G1 X120.803 Y97.453 E19.11111
G1 X120.806 Y97.503 E19.11471
G1 X120.838 Y98.078 E19.15608
G1 X120.84 Y98.125 E19.15946
G1 X120.871 Y98.879 E19.21367
G1 X120.874 Y98.967 E19.22
G1 X120.881 Y99.476 E19.25657
G1 X120.881 Y99.516 E19.25944
G1 X120.882 Y100.228 E19.3106
G1 X120.882 Y100.274 E19.3139
G1 X120.873 Y100.993 E19.36556
G1 X120.87 Y101.081 E19.37188
G1 X120.842 Y101.784 E19.42243
G1 X120.84 Y101.83 E19.42574
G1 X120.812 Y102.347 E19.46293
G1 X120.809 Y102.393 E19.46625
G1 X120.776 Y102.876 E19.50103
G1 X120.767 Y102.982 E19.50867
