;FLAVOR:Marlin
;TIME:3824
;Filament used: 5.67314m
;Layer height: 0.2
;MINX:63.364
;MINY:65.181
;MINZ:0.3
;MAXX:132.184
;MAXY:123.879
;MAXZ:17.9
;Generated with Cura_SteamEngine 4.3.0
M140 S60
M105
M190 S60
M104 S210
M105
M109 S210
M82 ;absolute extrusion mode
G28 ;Home
G29; auto bed leveling
G1 Z15.0 F6000 ;Move the platform down 15mm
;Prime the extruder
G92 E0
G1 F200 E3
G92 E0
G92 E0
G92 E0
G1 F1500 E-6.5
;LAYER_COUNT:89
;LAYER:0
M107
G0 F3600 X71.26 Y72.837 Z0.3
;TYPE:SKIRT
G1 F1500 E0
G1 F1800 X71.491 Y72.612 E0.02317
G1 X71.573 Y72.535 E0.03125
G1 X72.774 Y71.434 E0.1483
G1 X72.815 Y71.397 E0.15227
G1 X73.342 Y70.928 E0.20295
G1 X73.828 Y70.562 E0.24666
G1 X74.651 Y70.042 E0.3166
G1 X75.132 Y69.786 E0.35574
G1 X75.419 Y69.672 E0.37793
G1 X75.961 Y69.484 E0.41914
G1 X76.084 Y69.444 E0.42843
G1 X77.805 Y68.913 E0.55783
G1 X80.406 Y68.029 E0.75518
G1 X82.439 Y67.279 E0.91086
G1 X82.49 Y67.26 E0.91477
G1 X83.268 Y66.986 E0.97403
G1 X83.367 Y66.953 E0.98153
G1 X83.912 Y66.778 E1.02265
G1 X84.006 Y66.749 E1.02972
G1 X84.749 Y66.532 E1.08532
G1 X84.847 Y66.505 E1.09263
G1 X85.475 Y66.34 E1.13927
G1 X85.57 Y66.316 E1.14631
G1 X86.294 Y66.146 E1.19974
G1 X86.399 Y66.123 E1.20746
G1 X87.015 Y65.997 E1.25264
G1 X87.113 Y65.979 E1.25979
G1 X87.889 Y65.842 E1.31641
G1 X87.984 Y65.826 E1.32333
G1 X88.504 Y65.748 E1.3611
G1 X88.602 Y65.735 E1.3682
G1 X89.408 Y65.636 E1.42654
G1 X89.508 Y65.625 E1.43377
G1 X90.125 Y65.566 E1.4783
G1 X90.232 Y65.557 E1.48601
G1 X90.998 Y65.506 E1.54117
G1 X91.094 Y65.501 E1.54807
G1 X91.708 Y65.476 E1.59222
G1 X91.812 Y65.473 E1.5997
G1 X92.517 Y65.464 E1.65035
G1 X92.624 Y65.464 E1.65804
G1 X93.561 Y65.479 E1.72536
G1 X96.271 Y65.483 E1.92005
G1 X99.01 Y65.41 E2.1169
G1 X102.693 Y65.188 E2.38197
G1 X102.957 Y65.181 E2.40094
G1 X103.791 Y65.19 E2.46086
G1 X103.902 Y65.193 E2.46884
G1 X104.566 Y65.22 E2.51658
G1 X104.67 Y65.226 E2.52407
G1 X105.266 Y65.267 E2.56699
G1 X105.361 Y65.275 E2.57383
G1 X106.143 Y65.349 E2.63027
G1 X106.247 Y65.36 E2.63778
G1 X106.824 Y65.431 E2.67954
G1 X106.925 Y65.445 E2.68687
G1 X107.707 Y65.563 E2.74369
G1 X107.806 Y65.579 E2.75089
G1 X108.405 Y65.686 E2.79461
G1 X108.501 Y65.704 E2.80162
G1 X109.278 Y65.864 E2.85861
G1 X109.382 Y65.887 E2.86627
G1 X109.933 Y66.017 E2.90694
G1 X110.025 Y66.04 E2.91375
G1 X110.786 Y66.24 E2.97028
G1 X110.887 Y66.268 E2.97781
G1 X111.487 Y66.444 E3.02273
G1 X111.579 Y66.473 E3.02966
G1 X112.294 Y66.703 E3.08362
G1 X112.394 Y66.737 E3.09121
G1 X112.977 Y66.943 E3.13563
G1 X113.069 Y66.976 E3.14265
G1 X113.823 Y67.265 E3.20066
G1 X113.92 Y67.304 E3.20817
G1 X114.37 Y67.491 E3.24318
G1 X114.454 Y67.527 E3.24975
G1 X116.342 Y68.367 E3.3982
G1 X118.891 Y69.463 E3.59754
G1 X120.513 Y70.095 E3.7226
G1 X120.546 Y70.108 E3.72515
G1 X121.823 Y70.62 E3.82399
G1 X122.313 Y70.86 E3.86319
G1 X122.901 Y71.284 E3.91527
G1 X123.524 Y71.834 E3.97497
G1 X123.6 Y71.903 E3.98235
G1 X124.184 Y72.448 E4.03973
G1 X124.284 Y72.546 E4.04979
G1 X125.102 Y73.369 E4.13316
G1 X125.17 Y73.438 E4.14012
G1 X125.656 Y73.953 E4.19099
G1 X126 Y74.376 E4.23016
G1 X126.278 Y74.844 E4.26926
G1 X126.393 Y75.096 E4.28916
G1 X127.069 Y76.746 E4.41727
G1 X128.146 Y79.248 E4.61296
G1 X129.21 Y81.547 E4.79496
G1 X129.478 Y82.107 E4.83956
G1 X129.52 Y82.199 E4.84682
G1 X129.776 Y82.774 E4.89204
G1 X129.814 Y82.862 E4.89893
G1 X130.108 Y83.571 E4.95407
G1 X130.147 Y83.669 E4.96165
G1 X130.37 Y84.253 E5.00656
G1 X130.404 Y84.344 E5.01354
G1 X130.654 Y85.054 E5.06761
G1 X130.686 Y85.15 E5.07488
G1 X130.867 Y85.712 E5.1173
G1 X130.898 Y85.813 E5.12489
G1 X131.129 Y86.607 E5.1843
G1 X131.155 Y86.701 E5.1913
G1 X131.3 Y87.253 E5.23231
G1 X131.324 Y87.349 E5.23942
G1 X131.501 Y88.104 E5.29513
G1 X131.523 Y88.205 E5.30255
G1 X131.641 Y88.78 E5.34472
G1 X131.659 Y88.872 E5.35146
G1 X131.799 Y89.654 E5.40853
G1 X131.817 Y89.764 E5.41654
G1 X131.906 Y90.364 E5.46012
G1 X131.919 Y90.461 E5.46715
G1 X132.014 Y91.242 E5.52367
G1 X132.024 Y91.339 E5.53067
G1 X132.081 Y91.938 E5.5739
G1 X132.09 Y92.041 E5.58133
G1 X132.144 Y92.845 E5.63922
G1 X132.149 Y92.944 E5.64634
G1 X132.17 Y93.463 E5.68366
G1 X132.173 Y93.563 E5.69085
G1 X132.184 Y94.374 E5.74912
G1 X132.184 Y94.477 E5.75652
G1 X132.175 Y95.107 E5.80178
G1 X132.172 Y95.205 E5.80882
G1 X132.14 Y95.993 E5.86548
G1 X132.134 Y96.097 E5.87297
G1 X132.095 Y96.664 E5.9138
G1 X132.087 Y96.762 E5.92086
G1 X132.01 Y97.569 E5.9791
G1 X131.999 Y97.672 E5.98654
G1 X131.929 Y98.239 E6.02759
G1 X131.916 Y98.337 E6.03469
G1 X131.794 Y99.147 E6.09354
G1 X131.777 Y99.246 E6.10075
G1 X131.681 Y99.784 E6.14001
G1 X131.663 Y99.878 E6.14689
G1 X131.512 Y100.615 E6.20094
G1 X131.49 Y100.716 E6.20836
G1 X131.338 Y101.365 E6.25625
G1 X131.312 Y101.468 E6.26388
G1 X131.106 Y102.247 E6.32177
G1 X131.079 Y102.347 E6.32921
G1 X130.925 Y102.87 E6.36838
G1 X130.899 Y102.954 E6.3747
G1 X130.653 Y103.722 E6.43263
G1 X130.617 Y103.828 E6.44068
G1 X130.434 Y104.345 E6.48008
G1 X130.402 Y104.432 E6.48674
G1 X130.11 Y105.196 E6.5455
G1 X130.073 Y105.288 E6.55262
G1 X129.838 Y105.857 E6.59685
G1 X129.818 Y105.905 E6.60058
G1 X128.706 Y108.493 E6.80295
G1 X127.771 Y110.844 E6.98471
G1 X127.3 Y112.068 E7.07893
G1 X127.068 Y112.561 E7.11808
G1 X126.921 Y112.8 E7.13824
G1 X126.46 Y113.49 E7.19785
G1 X125.082 Y115.597 E7.37872
G1 X124.591 Y116.199 E7.43453
G1 X124.439 Y116.35 E7.44992
G1 X124.36 Y116.426 E7.4578
G1 X124.155 Y116.618 E7.47798
G1 X124.071 Y116.694 E7.48612
G1 X122.552 Y118.032 E7.63154
G1 X122.495 Y118.082 E7.63699
G1 X121.886 Y118.597 E7.69429
G1 X121.847 Y118.629 E7.69791
G1 X121.301 Y119.078 E7.7487
G1 X120.855 Y119.393 E7.78793
G1 X120.369 Y119.639 E7.82706
G1 X119.907 Y119.797 E7.86214
G1 X118.621 Y120.144 E7.95783
G1 X115.822 Y120.938 E8.16685
G1 X113.226 Y121.759 E8.36246
G1 X112.548 Y121.99 E8.41391
G1 X112.489 Y122.009 E8.41837
G1 X111.638 Y122.283 E8.48259
G1 X111.539 Y122.313 E8.49003
G1 X110.767 Y122.538 E8.5478
G1 X110.667 Y122.566 E8.55526
G1 X110.105 Y122.713 E8.59699
G1 X110.007 Y122.737 E8.60424
G1 X109.212 Y122.922 E8.66288
G1 X109.13 Y122.94 E8.66891
G1 X108.599 Y123.051 E8.70788
G1 X108.487 Y123.073 E8.71608
G1 X107.731 Y123.207 E8.77124
G1 X107.633 Y123.223 E8.77838
G1 X106.952 Y123.325 E8.82785
G1 X106.852 Y123.339 E8.8351
G1 X106.123 Y123.428 E8.88786
G1 X106.018 Y123.439 E8.89545
G1 X105.461 Y123.491 E8.93564
G1 X105.372 Y123.498 E8.94205
G1 X104.562 Y123.554 E9.00038
G1 X104.454 Y123.56 E9.00815
G1 X103.856 Y123.584 E9.05115
G1 X103.757 Y123.587 E9.05826
G1 X103.015 Y123.597 E9.11157
G1 X102.91 Y123.597 E9.11912
G1 X101.894 Y123.582 E9.19212
G1 X99.186 Y123.58 E9.38667
G1 X96.439 Y123.656 E9.58409
G1 X92.87 Y123.872 E9.84096
G1 X92.607 Y123.879 E9.85986
G1 X91.735 Y123.87 E9.92251
G1 X91.618 Y123.867 E9.93092
G1 X90.97 Y123.84 E9.97752
G1 X90.866 Y123.834 E9.985
G1 X90.292 Y123.794 E10.02634
G1 X90.197 Y123.786 E10.03319
G1 X89.37 Y123.707 E10.09287
G1 X89.271 Y123.696 E10.10003
G1 X88.741 Y123.631 E10.13839
G1 X88.644 Y123.618 E10.14542
G1 X87.855 Y123.5 E10.20273
G1 X87.756 Y123.484 E10.20994
G1 X87.163 Y123.379 E10.2532
G1 X87.059 Y123.359 E10.26081
G1 X86.309 Y123.204 E10.31583
G1 X86.213 Y123.183 E10.32289
G1 X85.586 Y123.036 E10.36916
G1 X85.479 Y123.009 E10.37708
G1 X84.708 Y122.804 E10.4344
G1 X84.623 Y122.78 E10.44074
G1 X84.122 Y122.634 E10.47823
G1 X84.024 Y122.604 E10.4856
G1 X83.259 Y122.358 E10.54333
G1 X83.162 Y122.326 E10.55067
G1 X82.566 Y122.116 E10.59606
G1 X82.472 Y122.081 E10.60327
G1 X81.764 Y121.81 E10.65773
G1 X81.668 Y121.772 E10.66515
G1 X81.097 Y121.535 E10.70957
G1 X81.004 Y121.495 E10.71684
G1 X78.472 Y120.362 E10.91612
G1 X75.997 Y119.313 E11.10924
G1 X74.779 Y118.842 E11.20306
G1 X74.735 Y118.825 E11.20645
G1 X73.423 Y118.298 E11.30803
G1 X72.934 Y118.058 E11.34716
G1 X72.37 Y117.654 E11.397
G1 X72.141 Y117.455 E11.4188
G1 X72.055 Y117.378 E11.42709
G1 X71.654 Y117.007 E11.46634
G1 X71.614 Y116.97 E11.47025
G1 X70.939 Y116.327 E11.53723
G1 X70.861 Y116.25 E11.5451
G1 X70.291 Y115.674 E11.60332
G1 X70.25 Y115.632 E11.60753
G1 X69.779 Y115.141 E11.65641
G1 X69.394 Y114.666 E11.70034
G1 X69.106 Y114.245 E11.73699
G1 X69.069 Y114.191 E11.74169
G1 X68.43 Y113.221 E11.82514
G1 X68.405 Y113.182 E11.82847
G1 X68.139 Y112.767 E11.86388
G1 X67.879 Y112.288 E11.90303
G1 X67.742 Y111.938 E11.93004
G1 X67.501 Y111.216 E11.98472
G1 X66.603 Y108.594 E12.18383
G1 X65.862 Y106.608 E12.33612
G1 X65.176 Y104.799 E12.47511
G1 X65.144 Y104.713 E12.4817
G1 X64.891 Y103.993 E12.53653
G1 X64.859 Y103.897 E12.5438
G1 X64.676 Y103.327 E12.58681
G1 X64.647 Y103.233 E12.59387
G1 X64.433 Y102.5 E12.64873
G1 X64.406 Y102.402 E12.65603
G1 X64.241 Y101.774 E12.70268
G1 X64.217 Y101.675 E12.71
G1 X64.042 Y100.926 E12.76526
G1 X64.021 Y100.831 E12.77225
G1 X63.912 Y100.302 E12.81105
G1 X63.893 Y100.205 E12.81815
G1 X63.747 Y99.387 E12.87785
G1 X63.729 Y99.28 E12.88564
G1 X63.646 Y98.722 E12.92617
G1 X63.634 Y98.633 E12.93262
G1 X63.535 Y97.835 E12.99039
G1 X63.524 Y97.728 E12.99812
G1 X63.471 Y97.168 E13.03853
G1 X63.463 Y97.073 E13.04538
G1 X63.407 Y96.261 E13.10386
G1 X63.401 Y96.152 E13.1117
G1 X63.378 Y95.571 E13.15347
G1 X63.375 Y95.473 E13.16052
G1 X63.364 Y94.645 E13.22001
G1 X63.364 Y94.544 E13.22726
G1 X63.372 Y93.974 E13.26822
G1 X63.375 Y93.87 E13.27569
G1 X63.409 Y93.058 E13.33408
G1 X63.415 Y92.958 E13.34127
G1 X63.454 Y92.393 E13.38196
G1 X63.462 Y92.295 E13.38903
G1 X63.539 Y91.49 E13.44712
G1 X63.55 Y91.392 E13.45421
G1 X63.621 Y90.812 E13.49619
G1 X63.635 Y90.707 E13.5038
G1 X63.757 Y89.902 E13.56229
G1 X63.773 Y89.802 E13.56956
G1 X63.869 Y89.267 E13.60861
G1 X63.887 Y89.177 E13.61521
G1 X64.052 Y88.372 E13.67424
G1 X64.075 Y88.265 E13.68211
G1 X64.203 Y87.722 E13.72219
G1 X64.226 Y87.63 E13.729
G1 X64.426 Y86.869 E13.78553
G1 X64.454 Y86.769 E13.79299
G1 X64.624 Y86.189 E13.83641
G1 X64.654 Y86.09 E13.84384
G1 X65.12 Y84.649 E13.95264
G1 X65.121 Y84.649 E13.95271
G1 X65.917 Y82.063 E14.1471
G1 X66.65 Y79.415 E14.34449
G1 X66.782 Y78.892 E14.38324
G1 X66.804 Y78.808 E14.38948
G1 X66.87 Y78.57 E14.40722
G1 X67.054 Y78.057 E14.44638
G1 X67.352 Y77.512 E14.491
G1 X67.649 Y77.063 E14.52968
G1 X67.788 Y76.868 E14.54688
G1 X68.418 Y76.037 E14.6218
G1 X68.461 Y75.981 E14.62687
G1 X68.64 Y75.754 E14.64764
G1 X68.67 Y75.716 E14.65112
G1 X69.13 Y75.148 E14.70363
G1 X69.268 Y74.987 E14.71886
G1 X69.647 Y74.57 E14.75935
G1 X69.693 Y74.521 E14.76417
G1 X70.186 Y73.998 E14.81581
G1 X71.117 Y72.985 E14.91465
G1 X71.26 Y72.837 E14.92944
G0 F3600 X71.595 Y73.181
G1 F1800 X71.826 Y72.956 E14.9526
G1 X71.898 Y72.889 E14.95967
G1 X73.099 Y71.788 E15.07672
G1 X73.134 Y71.756 E15.08013
G1 X73.661 Y71.287 E15.13081
G1 X74.084 Y70.968 E15.16887
G1 X74.907 Y70.448 E15.23881
G1 X75.576 Y70.126 E15.29215
G1 X76.118 Y69.938 E15.33337
G1 X76.225 Y69.903 E15.34145
G1 X77.97 Y69.365 E15.47264
G1 X80.527 Y68.495 E15.66668
G1 X82.605 Y67.729 E15.82579
G1 X82.65 Y67.713 E15.82922
G1 X83.428 Y67.439 E15.88848
G1 X83.513 Y67.41 E15.89493
G1 X84.058 Y67.235 E15.93605
G1 X84.141 Y67.21 E15.94228
G1 X84.884 Y66.993 E15.99789
G1 X84.969 Y66.969 E16.00423
G1 X85.597 Y66.804 E16.05088
G1 X85.679 Y66.784 E16.05695
G1 X86.403 Y66.614 E16.11037
G1 X86.495 Y66.594 E16.11714
G1 X87.111 Y66.468 E16.16231
G1 X87.197 Y66.451 E16.16861
G1 X87.973 Y66.314 E16.22522
G1 X88.055 Y66.301 E16.23118
G1 X88.575 Y66.223 E16.26896
G1 X88.661 Y66.211 E16.2752
G1 X89.467 Y66.112 E16.33354
G1 X89.554 Y66.103 E16.33982
G1 X90.171 Y66.044 E16.38435
G1 X90.264 Y66.036 E16.39106
G1 X91.03 Y65.985 E16.44621
G1 X91.113 Y65.981 E16.45218
G1 X91.727 Y65.956 E16.49633
G1 X91.818 Y65.953 E16.50287
G1 X92.523 Y65.944 E16.55352
G1 X92.616 Y65.944 E16.5602
G1 X93.553 Y65.959 E16.62752
G1 X96.283 Y65.963 E16.82365
G1 X99.022 Y65.89 E17.0205
G1 X102.722 Y65.667 E17.2868
G1 X102.952 Y65.661 E17.30332
G1 X103.786 Y65.67 E17.36324
G1 X103.883 Y65.673 E17.37022
G1 X104.547 Y65.7 E17.41796
G1 X104.637 Y65.705 E17.42443
G1 X105.233 Y65.746 E17.46735
G1 X105.316 Y65.752 E17.47333
G1 X106.098 Y65.826 E17.52976
G1 X106.189 Y65.836 E17.53634
G1 X106.766 Y65.907 E17.57811
G1 X106.853 Y65.919 E17.58442
G1 X107.635 Y66.037 E17.64123
G1 X107.722 Y66.051 E17.64756
G1 X108.321 Y66.158 E17.69128
G1 X108.404 Y66.175 E17.69736
G1 X109.181 Y66.335 E17.75436
G1 X109.272 Y66.355 E17.76105
G1 X109.823 Y66.485 E17.80172
G1 X109.903 Y66.504 E17.80763
G1 X110.664 Y66.704 E17.86416
G1 X110.752 Y66.729 E17.87073
G1 X111.352 Y66.905 E17.91565
G1 X111.432 Y66.93 E17.92167
G1 X112.147 Y67.16 E17.97563
G1 X112.234 Y67.189 E17.98222
G1 X112.817 Y67.395 E18.02664
G1 X112.898 Y67.425 E18.03285
G1 X113.652 Y67.714 E18.09086
G1 X113.735 Y67.747 E18.09727
G1 X114.185 Y67.934 E18.13228
G1 X114.259 Y67.966 E18.13808
G1 X116.152 Y68.808 E18.28692
G1 X118.695 Y69.901 E18.48577
G1 X120.339 Y70.542 E18.61254
G1 X120.368 Y70.554 E18.6148
G1 X121.645 Y71.066 E18.71364
G1 X122.101 Y71.292 E18.7502
G1 X122.583 Y71.644 E18.79308
G1 X123.206 Y72.194 E18.85278
G1 X123.273 Y72.254 E18.85924
G1 X123.857 Y72.799 E18.91663
G1 X123.944 Y72.884 E18.92537
G1 X124.762 Y73.707 E19.00873
G1 X124.82 Y73.767 E19.01473
G1 X125.306 Y74.282 E19.0656
G1 X125.625 Y74.679 E19.10219
G1 X125.948 Y75.278 E19.15108
G1 X126.607 Y76.888 E19.27606
G1 X127.712 Y79.455 E19.47684
G1 X128.76 Y81.718 E19.656
G1 X129.045 Y82.314 E19.70346
G1 X129.082 Y82.394 E19.7098
G1 X129.338 Y82.969 E19.75501
G1 X129.371 Y83.046 E19.76103
G1 X129.665 Y83.755 E19.81617
G1 X129.699 Y83.84 E19.82275
G1 X129.922 Y84.424 E19.86766
G1 X129.951 Y84.504 E19.87377
G1 X130.201 Y85.214 E19.92785
G1 X130.229 Y85.297 E19.93414
G1 X130.41 Y85.859 E19.97656
G1 X130.437 Y85.947 E19.98318
G1 X130.668 Y86.741 E20.04258
G1 X130.691 Y86.823 E20.0487
G1 X130.836 Y87.375 E20.0897
G1 X130.856 Y87.458 E20.09584
G1 X131.033 Y88.213 E20.15155
G1 X131.053 Y88.302 E20.1581
G1 X131.171 Y88.877 E20.20027
G1 X131.186 Y88.957 E20.20612
G1 X131.326 Y89.739 E20.26319
G1 X131.342 Y89.835 E20.27018
G1 X131.431 Y90.435 E20.31376
G1 X131.442 Y90.519 E20.31985
G1 X131.537 Y91.3 E20.37637
G1 X131.546 Y91.384 E20.38244
G1 X131.603 Y91.983 E20.42567
G1 X131.611 Y92.073 E20.43216
G1 X131.665 Y92.877 E20.49005
G1 X131.669 Y92.963 E20.49623
G1 X131.69 Y93.482 E20.53355
G1 X131.693 Y93.569 E20.5398
G1 X131.704 Y94.38 E20.59807
G1 X131.704 Y94.47 E20.60454
G1 X131.695 Y95.1 E20.6498
G1 X131.692 Y95.185 E20.65591
G1 X131.66 Y95.973 E20.71257
G1 X131.655 Y96.064 E20.71912
G1 X131.616 Y96.631 E20.75995
G1 X131.609 Y96.717 E20.76615
G1 X131.532 Y97.524 E20.82439
G1 X131.523 Y97.613 E20.83082
G1 X131.453 Y98.18 E20.87186
G1 X131.441 Y98.266 E20.8781
G1 X131.319 Y99.076 E20.93695
G1 X131.305 Y99.162 E20.94321
G1 X131.209 Y99.7 E20.98247
G1 X131.193 Y99.781 E20.9884
G1 X131.042 Y100.518 E21.04245
G1 X131.023 Y100.607 E21.04898
G1 X130.871 Y101.256 E21.09687
G1 X130.848 Y101.345 E21.10348
G1 X130.642 Y102.124 E21.16136
G1 X130.618 Y102.211 E21.16785
G1 X130.464 Y102.734 E21.20702
G1 X130.442 Y102.807 E21.21249
G1 X130.196 Y103.575 E21.27043
G1 X130.164 Y103.668 E21.27749
G1 X129.981 Y104.185 E21.3169
G1 X129.953 Y104.261 E21.32271
G1 X129.661 Y105.025 E21.38147
G1 X129.63 Y105.105 E21.38764
G1 X129.395 Y105.674 E21.43186
G1 X129.377 Y105.716 E21.43515
G1 X128.257 Y108.324 E21.63906
G1 X127.325 Y110.666 E21.82014
G1 X126.852 Y111.896 E21.91482
G1 X126.522 Y112.533 E21.96636
G1 X126.061 Y113.223 E22.02598
G1 X124.68 Y115.334 E22.2072
G1 X124.252 Y115.859 E22.25587
G1 X124.1 Y116.01 E22.27126
G1 X124.032 Y116.076 E22.27807
G1 X123.827 Y116.268 E22.29824
G1 X123.754 Y116.334 E22.30531
G1 X122.235 Y117.672 E22.45074
G1 X122.185 Y117.715 E22.45548
G1 X121.576 Y118.23 E22.51278
G1 X121.542 Y118.259 E22.51599
G1 X120.996 Y118.708 E22.56677
G1 X120.579 Y118.999 E22.6033
G1 X120.121 Y119.221 E22.63987
G1 X119.782 Y119.333 E22.66552
G1 X118.521 Y119.673 E22.75935
G1 X115.677 Y120.48 E22.97173
G1 X113.065 Y121.306 E23.16854
G1 X112.393 Y121.535 E23.21955
G1 X112.342 Y121.552 E23.22341
G1 X111.491 Y121.826 E23.28764
G1 X111.405 Y121.853 E23.29411
G1 X110.633 Y122.078 E23.35188
G1 X110.546 Y122.102 E23.35836
G1 X109.984 Y122.249 E23.4001
