;FLAVOR:Marlin
;TIME:3841
;Filament used: 5.55738m
;Layer height: 0.2
;MINX:53.539
;MINY:70.79
;MINZ:0.2
;MAXX:116.47
;MAXY:129.206
;MAXZ:18
;Generated with Cura_SteamEngine 4.3.0
M140 S60
M105
M190 S60
M104 S210
M105
M109 S210
M82 ;absolute extrusion mode
G28 ;Home
G29; auto bed leveling
G1 Z15.0 F6000 ;Move the platform down 15mm
;Prime the extruder
G92 E0
G1 F200 E3
G92 E0
G92 E0
G92 E0
G1 F1500 E-6.5
;LAYER_COUNT:90
;LAYER:0
M107
M204 S5000
G0 F3600 X62.858 Y76.871 Z0.2
M204 S1500
;TYPE:SKIRT
G1 F1500 E0
G1 F1800 X63.965 Y76.043 E0.06621
G1 X64.014 Y76.007 E0.06912
G1 X64.353 Y75.762 E0.08915
G1 X64.817 Y75.476 E0.11526
G1 X65.334 Y75.255 E0.14219
G1 X68.167 Y74.291 E0.28551
G1 X70.722 Y73.341 E0.41607
G1 X71.424 Y73.06 E0.45229
G1 X71.48 Y73.038 E0.45517
G1 X72.626 Y72.6 E0.51393
G1 X72.724 Y72.564 E0.51893
G1 X73.449 Y72.31 E0.55572
G1 X73.54 Y72.28 E0.56031
G1 X74.087 Y72.104 E0.58783
G1 X74.183 Y72.074 E0.59265
G1 X74.926 Y71.857 E0.62972
G1 X75.026 Y71.829 E0.63469
G1 X75.652 Y71.665 E0.66569
G1 X75.749 Y71.642 E0.67046
G1 X76.498 Y71.467 E0.7073
G1 X76.599 Y71.444 E0.71226
G1 X77.127 Y71.336 E0.73807
G1 X77.215 Y71.32 E0.74236
G1 X78.034 Y71.173 E0.78221
G1 X78.144 Y71.154 E0.78756
G1 X78.702 Y71.071 E0.81458
G1 X78.79 Y71.059 E0.81883
G1 X79.562 Y70.963 E0.85609
G1 X79.674 Y70.951 E0.86148
G1 X80.314 Y70.891 E0.89227
G1 X80.412 Y70.883 E0.89698
G1 X81.171 Y70.832 E0.93341
G1 X81.268 Y70.827 E0.93807
G1 X81.879 Y70.802 E0.96735
G1 X81.984 Y70.799 E0.97239
G1 X82.698 Y70.79 E1.00658
G1 X83.222 Y70.821 E1.03173
G1 X84.5 Y70.986 E1.09344
G1 X87.271 Y71.305 E1.22704
G1 X89.96 Y71.538 E1.35631
G1 X92.711 Y71.698 E1.48829
G1 X95.4 Y71.779 E1.61713
G1 X98.123 Y71.783 E1.74755
G1 X100.879 Y71.71 E1.8796
G1 X103.569 Y71.561 E2.00863
G1 X106.284 Y71.335 E2.13911
G1 X108.588 Y71.082 E2.25013
G1 X109.576 Y70.962 E2.29779
G1 X109.676 Y70.951 E2.30261
G1 X110.311 Y70.891 E2.33316
G1 X110.412 Y70.883 E2.33801
G1 X111.171 Y70.832 E2.37445
G1 X111.268 Y70.827 E2.3791
G1 X111.879 Y70.802 E2.40839
G1 X111.983 Y70.799 E2.41337
G1 X112.68 Y70.79 E2.44675
G1 X113.224 Y70.823 E2.47286
G1 X113.758 Y70.935 E2.49899
G1 X114.269 Y71.124 E2.52508
G1 X114.747 Y71.386 E2.55119
G1 X115.182 Y71.714 E2.57728
G1 X115.564 Y72.103 E2.6034
G1 X115.886 Y72.544 E2.62955
G1 X116.139 Y73.026 E2.65562
G1 X116.32 Y73.541 E2.68177
G1 X116.423 Y74.076 E2.70786
G1 X116.447 Y74.431 E2.7249
G1 X116.469 Y75.461 E2.77424
G1 X116.47 Y75.542 E2.77812
G1 X116.463 Y90.833 E3.51048
G1 X116.463 Y90.881 E3.51278
G1 X116.454 Y91.547 E3.54468
G1 X116.445 Y91.762 E3.55499
G1 X116.321 Y93.496 E3.63825
G1 X116.174 Y96.237 E3.76971
G1 X116.104 Y98.958 E3.90008
G1 X116.113 Y101.684 E4.03064
G1 X116.198 Y104.406 E4.16107
G1 X116.358 Y107.1 E4.29033
G1 X116.397 Y107.563 E4.31258
G1 X116.402 Y107.625 E4.31556
G1 X116.444 Y108.248 E4.34547
G1 X116.451 Y108.434 E4.35438
G1 X116.461 Y109.013 E4.38212
G1 X116.462 Y109.075 E4.38509
G1 X116.47 Y124.653 E5.13119
G1 X116.47 Y124.705 E5.13368
G1 X116.463 Y125.228 E5.15873
G1 X116.459 Y125.347 E5.16443
G1 X116.445 Y125.654 E5.17915
G1 X116.38 Y126.196 E5.2053
G1 X116.237 Y126.722 E5.2314
G1 X116.019 Y127.221 E5.25748
G1 X115.73 Y127.683 E5.28358
G1 X115.376 Y128.098 E5.30971
G1 X114.966 Y128.457 E5.33581
G1 X114.507 Y128.752 E5.36194
G1 X114.011 Y128.977 E5.38803
G1 X113.487 Y129.127 E5.41413
G1 X112.694 Y129.205 E5.4523
G1 X111.945 Y129.198 E5.48817
G1 X111.829 Y129.195 E5.49373
G1 X111.163 Y129.168 E5.52565
G1 X111.062 Y129.162 E5.5305
G1 X110.488 Y129.123 E5.55805
G1 X110.382 Y129.115 E5.56315
G1 X109.564 Y129.036 E5.60251
G1 X109.469 Y129.025 E5.60709
G1 X108.736 Y128.935 E5.64246
G1 X105.973 Y128.633 E5.77558
G1 X103.268 Y128.417 E5.90554
G1 X100.544 Y128.275 E6.03619
G1 X97.82 Y128.21 E6.16669
G1 X95.095 Y128.223 E6.2972
G1 X92.377 Y128.311 E6.42745
G1 X89.657 Y128.478 E6.55797
G1 X86.968 Y128.719 E6.68727
G1 X83.851 Y129.093 E6.83763
G1 X83.271 Y129.172 E6.86567
G1 X82.731 Y129.206 E6.89158
G1 X81.942 Y129.198 E6.92937
G1 X81.829 Y129.195 E6.93478
G1 X81.163 Y129.168 E6.96671
G1 X81.062 Y129.162 E6.97155
G1 X80.488 Y129.123 E6.99911
G1 X80.385 Y129.115 E7.00406
G1 X79.561 Y129.036 E7.0437
G1 X79.461 Y129.025 E7.04852
G1 X78.901 Y128.956 E7.07555
G1 X78.801 Y128.942 E7.08038
G1 X77.979 Y128.818 E7.1202
G1 X77.883 Y128.803 E7.12485
G1 X77.399 Y128.717 E7.14839
G1 X77.303 Y128.698 E7.15308
G1 X76.478 Y128.529 E7.19342
G1 X76.374 Y128.506 E7.19852
G1 X75.761 Y128.362 E7.22867
G1 X75.663 Y128.338 E7.23351
G1 X74.947 Y128.149 E7.26897
G1 X74.852 Y128.123 E7.27369
G1 X74.25 Y127.947 E7.30373
G1 X74.149 Y127.915 E7.30881
G1 X73.401 Y127.673 E7.34646
G1 X73.311 Y127.643 E7.351
G1 X72.76 Y127.449 E7.37898
G1 X72.665 Y127.414 E7.38383
G1 X71.939 Y127.136 E7.42106
G1 X71.843 Y127.098 E7.42601
G1 X71.272 Y126.861 E7.45562
G1 X71.178 Y126.82 E7.46053
G1 X70.472 Y126.504 E7.49758
G1 X70.386 Y126.465 E7.5021
G1 X69.849 Y126.208 E7.53061
G1 X69.757 Y126.162 E7.53554
G1 X69.067 Y125.808 E7.57268
G1 X68.977 Y125.76 E7.57757
G1 X68.468 Y125.481 E7.60537
G1 X68.38 Y125.431 E7.61021
G1 X67.69 Y125.028 E7.64849
G1 X67.606 Y124.978 E7.65317
G1 X67.106 Y124.668 E7.68134
G1 X67.024 Y124.615 E7.68602
G1 X66.351 Y124.173 E7.72458
G1 X66.264 Y124.115 E7.72959
G1 X65.784 Y123.78 E7.75763
G1 X65.7 Y123.719 E7.7626
G1 X65.1 Y123.275 E7.79835
G1 X65.021 Y123.215 E7.8031
G1 X64.516 Y122.82 E7.8338
G1 X64.438 Y122.757 E7.83861
G1 X63.815 Y122.242 E7.87732
G1 X63.737 Y122.176 E7.88221
G1 X63.341 Y121.83 E7.9074
G1 X63.273 Y121.769 E7.91178
G1 X62.675 Y121.22 E7.95066
G1 X62.6 Y121.149 E7.9556
G1 X62.189 Y120.75 E7.98304
G1 X62.115 Y120.676 E7.98805
G1 X61.563 Y120.109 E8.02595
G1 X61.486 Y120.028 E8.0313
G1 X61.055 Y119.558 E8.06184
G1 X60.995 Y119.491 E8.06615
G1 X60.484 Y118.906 E8.10335
G1 X60.42 Y118.831 E8.10808
G1 X60.069 Y118.407 E8.13444
G1 X60.006 Y118.328 E8.13928
G1 X59.483 Y117.66 E8.17991
G1 X59.42 Y117.578 E8.18486
G1 X59.12 Y117.172 E8.20904
G1 X59.062 Y117.09 E8.21385
G1 X58.565 Y116.378 E8.25544
G1 X58.506 Y116.292 E8.26043
G1 X58.211 Y115.843 E8.28617
G1 X58.165 Y115.771 E8.29026
G1 X57.742 Y115.094 E8.32849
G1 X57.685 Y115 E8.33376
G1 X57.359 Y114.442 E8.36471
G1 X57.31 Y114.355 E8.36949
G1 X56.94 Y113.681 E8.40632
G1 X56.889 Y113.584 E8.41156
G1 X56.639 Y113.095 E8.43787
G1 X56.596 Y113.009 E8.44247
G1 X56.233 Y112.251 E8.48273
G1 X56.19 Y112.159 E8.48759
G1 X55.939 Y111.596 E8.51711
G1 X55.9 Y111.505 E8.52185
G1 X55.627 Y110.846 E8.55602
G1 X55.589 Y110.749 E8.56101
G1 X55.35 Y110.123 E8.5931
G1 X55.314 Y110.026 E8.59806
G1 X55.06 Y109.301 E8.63485
G1 X55.029 Y109.208 E8.63954
G1 X54.854 Y108.663 E8.66696
G1 X54.825 Y108.569 E8.67167
G1 X54.608 Y107.826 E8.70874
G1 X54.581 Y107.728 E8.71361
G1 X54.416 Y107.1 E8.74471
G1 X54.392 Y107.001 E8.74959
G1 X54.217 Y106.252 E8.78643
G1 X54.194 Y106.151 E8.79139
G1 X54.086 Y105.623 E8.8172
G1 X54.069 Y105.534 E8.82154
G1 X53.922 Y104.714 E8.86144
G1 X53.905 Y104.606 E8.86668
G1 X53.822 Y104.049 E8.89365
G1 X53.809 Y103.96 E8.89796
G1 X53.713 Y103.188 E8.93522
G1 X53.701 Y103.076 E8.94061
G1 X53.641 Y102.436 E8.9714
G1 X53.633 Y102.338 E8.97611
G1 X53.582 Y101.579 E9.01254
G1 X53.577 Y101.481 E9.01724
G1 X53.552 Y100.867 E9.04667
G1 X53.549 Y100.763 E9.05166
G1 X53.539 Y99.969 E9.08969
G1 X53.539 Y99.87 E9.09443
G1 X53.547 Y99.299 E9.12178
G1 X53.55 Y99.195 E9.12676
G1 X53.583 Y98.407 E9.16454
G1 X53.589 Y98.311 E9.16914
G1 X53.629 Y97.723 E9.19737
G1 X53.637 Y97.623 E9.20217
G1 X53.714 Y96.814 E9.2411
G1 X53.725 Y96.711 E9.24606
G1 X53.794 Y96.151 E9.27308
G1 X53.808 Y96.051 E9.27792
G1 X53.932 Y95.229 E9.31773
G1 X53.947 Y95.133 E9.32239
G1 X54.033 Y94.649 E9.34593
G1 X54.052 Y94.553 E9.35062
G1 X54.221 Y93.728 E9.39095
G1 X54.243 Y93.627 E9.3959
G1 X54.386 Y93.016 E9.42596
G1 X54.411 Y92.914 E9.43099
G1 X54.601 Y92.195 E9.4666
G1 X54.628 Y92.098 E9.47143
G1 X54.802 Y91.505 E9.50103
G1 X54.832 Y91.41 E9.5058
G1 X55.13 Y90.486 E9.5523
G1 X55.948 Y87.826 E9.68558
G1 X56.598 Y85.479 E9.80222
G1 X56.952 Y84.158 E9.86772
G1 X57.131 Y83.643 E9.89384
G1 X57.384 Y83.16 E9.91995
G1 X57.537 Y82.932 E9.9331
G1 X58.031 Y82.253 E9.97332
G1 X58.068 Y82.203 E9.9763
G1 X59.168 Y80.743 E10.06385
G1 X59.213 Y80.685 E10.06737
G1 X59.659 Y80.117 E10.10195
G1 X59.71 Y80.053 E10.10587
G1 X60.261 Y79.382 E10.14746
G1 X60.405 Y79.218 E10.15791
G1 X60.687 Y78.913 E10.17781
G1 X60.804 Y78.791 E10.1859
G1 X61.447 Y78.156 E10.22918
G1 X61.5 Y78.105 E10.23271
G1 X61.97 Y77.659 E10.26374
G1 X62.022 Y77.61 E10.26716
G1 X62.577 Y77.103 E10.30316
G1 X62.858 Y76.871 E10.32062
M204 S5000
G0 F3600 X63.145 Y77.255
M204 S1500
G1 F1800 X64.252 Y76.427 E10.38683
G1 X64.295 Y76.396 E10.38937
G1 X64.634 Y76.151 E10.4094
G1 X65.069 Y75.886 E10.43379
G1 X65.489 Y75.71 E10.4556
G1 X68.305 Y74.752 E10.59807
G1 X70.917 Y73.781 E10.73153
G1 X71.603 Y73.506 E10.76693
G1 X71.651 Y73.487 E10.7694
G1 X72.797 Y73.049 E10.82816
G1 X72.883 Y73.017 E10.83256
G1 X73.608 Y72.763 E10.86935
G1 X73.687 Y72.737 E10.87333
G1 X74.234 Y72.561 E10.90085
G1 X74.318 Y72.535 E10.90506
G1 X75.061 Y72.318 E10.94214
G1 X75.148 Y72.294 E10.94646
G1 X75.774 Y72.13 E10.97745
G1 X75.858 Y72.109 E10.9816
G1 X76.607 Y71.934 E11.01844
G1 X76.695 Y71.915 E11.02275
G1 X77.223 Y71.807 E11.04856
G1 X77.3 Y71.792 E11.05232
G1 X78.119 Y71.645 E11.09217
G1 X78.214 Y71.629 E11.09679
G1 X78.772 Y71.546 E11.12381
G1 X78.849 Y71.536 E11.12753
G1 X79.621 Y71.44 E11.16478
G1 X79.719 Y71.429 E11.16951
G1 X80.359 Y71.369 E11.20029
G1 X80.444 Y71.362 E11.20438
G1 X81.203 Y71.311 E11.24081
G1 X81.288 Y71.307 E11.24489
G1 X81.899 Y71.282 E11.27418
G1 X81.99 Y71.279 E11.27854
G1 X82.704 Y71.27 E11.31274
G1 X83.161 Y71.297 E11.33466
G1 X84.445 Y71.463 E11.39667
G1 X87.208 Y71.781 E11.52988
G1 X89.928 Y72.017 E11.66064
G1 X92.669 Y72.176 E11.79214
G1 X95.42 Y72.259 E11.92396
G1 X98.135 Y72.263 E12.05399
G1 X100.882 Y72.19 E12.18561
G1 X103.601 Y72.04 E12.31603
G1 X106.336 Y71.812 E12.44748
G1 X108.679 Y71.555 E12.56037
G1 X109.634 Y71.439 E12.60644
G1 X109.721 Y71.429 E12.61064
G1 X110.356 Y71.369 E12.64118
G1 X110.444 Y71.362 E12.64541
G1 X111.203 Y71.311 E12.68185
G1 X111.288 Y71.307 E12.68592
G1 X111.899 Y71.282 E12.71521
G1 X111.989 Y71.279 E12.71952
G1 X112.686 Y71.27 E12.75291
G1 X113.194 Y71.304 E12.77729
G1 X113.69 Y71.416 E12.80165
G1 X114.162 Y71.605 E12.826
G1 X114.599 Y71.865 E12.85035
G1 X114.99 Y72.191 E12.87473
G1 X115.326 Y72.573 E12.8991
G1 X115.597 Y73.004 E12.92348
G1 X115.797 Y73.471 E12.94782
G1 X115.922 Y73.965 E12.97222
G1 X115.967 Y74.441 E12.99512
G1 X115.989 Y75.471 E13.04446
G1 X115.99 Y75.541 E13.04782
G1 X115.983 Y90.832 E13.78017
G1 X115.983 Y90.875 E13.78223
G1 X115.974 Y91.541 E13.81413
G1 X115.966 Y91.728 E13.8231
G1 X115.84 Y93.49 E13.9077
G1 X115.694 Y96.199 E14.03764
G1 X115.624 Y98.948 E14.16934
G1 X115.633 Y101.7 E14.30115
G1 X115.717 Y104.413 E14.43115
G1 X115.878 Y107.116 E14.56084
G1 X115.919 Y107.603 E14.58425
G1 X115.923 Y107.657 E14.58684
G1 X115.965 Y108.28 E14.61674
G1 X115.972 Y108.442 E14.62451
G1 X115.982 Y109.021 E14.65225
G1 X115.982 Y109.075 E14.65483
G1 X115.99 Y124.653 E15.40093
G1 X115.99 Y124.698 E15.40309
G1 X115.983 Y125.221 E15.42814
G1 X115.98 Y125.326 E15.43317
G1 X115.966 Y125.633 E15.44789
G1 X115.903 Y126.137 E15.47222
G1 X115.761 Y126.626 E15.49661
G1 X115.545 Y127.087 E15.52099
G1 X115.26 Y127.508 E15.54534
G1 X114.912 Y127.879 E15.5697
G1 X114.51 Y128.191 E15.59407
G1 X114.065 Y128.437 E15.61843
G1 X113.586 Y128.609 E15.6428
G1 X113.087 Y128.705 E15.66714
G1 X112.699 Y128.725 E15.68575
G1 X111.95 Y128.718 E15.72162
G1 X111.849 Y128.715 E15.72646
G1 X111.183 Y128.688 E15.75838
G1 X111.094 Y128.684 E15.76265
G1 X110.52 Y128.645 E15.79021
G1 X110.429 Y128.637 E15.79458
G1 X109.611 Y128.558 E15.83394
G1 X109.527 Y128.549 E15.83799
G1 X108.767 Y128.456 E15.87466
G1 X106.029 Y128.157 E16.00657
G1 X103.295 Y127.938 E16.13794
G1 X100.546 Y127.795 E16.26978
G1 X97.829 Y127.73 E16.39994
G1 X95.076 Y127.743 E16.5318
G1 X92.366 Y127.831 E16.66166
G1 X89.621 Y127.999 E16.79338
G1 X86.902 Y128.243 E16.92413
G1 X83.794 Y128.616 E17.07405
G1 X83.206 Y128.696 E17.10247
G1 X82.736 Y128.726 E17.12503
G1 X81.947 Y128.718 E17.16282
G1 X81.849 Y128.715 E17.16752
G1 X81.183 Y128.688 E17.19944
G1 X81.094 Y128.684 E17.20371
G1 X80.52 Y128.645 E17.23126
G1 X80.431 Y128.637 E17.23554
G1 X79.607 Y128.558 E17.27519
G1 X79.52 Y128.549 E17.27938
G1 X78.96 Y128.48 E17.3064
G1 X78.873 Y128.468 E17.31061
G1 X78.051 Y128.344 E17.35042
G1 X77.967 Y128.33 E17.3545
G1 X77.483 Y128.244 E17.37805
G1 X77.4 Y128.228 E17.38209
G1 X76.575 Y128.059 E17.42243
G1 X76.484 Y128.039 E17.42689
G1 X75.871 Y127.895 E17.45705
G1 X75.785 Y127.874 E17.46129
G1 X75.069 Y127.685 E17.49676
G1 X74.987 Y127.662 E17.50083
G1 X74.385 Y127.486 E17.53087
G1 X74.297 Y127.459 E17.53528
G1 X73.549 Y127.217 E17.57294
G1 X73.47 Y127.19 E17.57693
G1 X72.919 Y126.996 E17.60491
G1 X72.836 Y126.966 E17.60914
G1 X72.11 Y126.688 E17.64637
G1 X72.027 Y126.654 E17.65067
G1 X71.456 Y126.417 E17.68028
G1 X71.374 Y126.382 E17.68455
G1 X70.668 Y126.066 E17.72159
G1 X70.593 Y126.032 E17.72554
G1 X70.056 Y125.775 E17.75405
G1 X69.976 Y125.735 E17.75834
G1 X69.286 Y125.381 E17.79548
G1 X69.208 Y125.339 E17.79972
G1 X68.699 Y125.06 E17.82752
G1 X68.622 Y125.017 E17.83175
G1 X67.932 Y124.614 E17.87002
G1 X67.859 Y124.57 E17.8741
G1 X67.359 Y124.26 E17.90228
G1 X67.287 Y124.214 E17.90637
G1 X66.614 Y123.772 E17.94493
G1 X66.539 Y123.721 E17.94927
G1 X66.059 Y123.386 E17.97731
G1 X65.986 Y123.333 E17.98163
G1 X65.386 Y122.889 E18.01738
G1 X65.317 Y122.837 E18.02152
G1 X64.812 Y122.442 E18.05222
G1 X64.744 Y122.387 E18.05641
G1 X64.121 Y121.872 E18.09513
G1 X64.053 Y121.815 E18.09938
G1 X63.657 Y121.469 E18.12456
G1 X63.598 Y121.416 E18.12836
G1 X63 Y120.867 E18.16724
G1 X62.934 Y120.805 E18.17158
G1 X62.523 Y120.406 E18.19901
G1 X62.458 Y120.341 E18.20342
G1 X61.906 Y119.774 E18.24132
G1 X61.84 Y119.704 E18.24592
G1 X61.409 Y119.234 E18.27647
G1 X61.357 Y119.175 E18.28023
G1 X60.846 Y118.59 E18.31743
G1 X60.79 Y118.525 E18.32154
G1 X60.439 Y118.101 E18.34791
G1 X60.384 Y118.032 E18.35213
G1 X59.861 Y117.364 E18.39277
G1 X59.806 Y117.292 E18.39711
G1 X59.506 Y116.886 E18.42128
G1 X59.455 Y116.816 E18.42543
G1 X58.958 Y116.104 E18.46702
G1 X58.907 Y116.028 E18.4714
G1 X58.612 Y115.579 E18.49713
G1 X58.572 Y115.517 E18.50067
G1 X58.149 Y114.84 E18.5389
G1 X58.099 Y114.757 E18.54354
G1 X57.773 Y114.199 E18.57449
G1 X57.731 Y114.124 E18.57861
G1 X57.361 Y113.45 E18.61543
G1 X57.316 Y113.366 E18.62
G1 X57.066 Y112.877 E18.6463
G1 X57.029 Y112.801 E18.65035
G1 X56.666 Y112.043 E18.6906
G1 X56.629 Y111.963 E18.69482
G1 X56.378 Y111.4 E18.72435
G1 X56.344 Y111.321 E18.72847
G1 X56.071 Y110.662 E18.76263
G1 X56.037 Y110.578 E18.76697
G1 X55.798 Y109.952 E18.79906
G1 X55.767 Y109.867 E18.8034
G1 X55.513 Y109.142 E18.84019
G1 X55.486 Y109.062 E18.84423
G1 X55.311 Y108.517 E18.87165
G1 X55.286 Y108.434 E18.8758
G1 X55.069 Y107.691 E18.91287
G1 X55.045 Y107.606 E18.9171
G1 X54.88 Y106.978 E18.9482
G1 X54.859 Y106.892 E18.95244
G1 X54.684 Y106.143 E18.98928
G1 X54.665 Y106.055 E18.99359
G1 X54.557 Y105.527 E19.01941
G1 X54.542 Y105.45 E19.02316
G1 X54.395 Y104.63 E19.06306
G1 X54.379 Y104.536 E19.06763
G1 X54.296 Y103.979 E19.0946
G1 X54.286 Y103.901 E19.09837
G1 X54.19 Y103.129 E19.13563
G1 X54.179 Y103.031 E19.14035
G1 X54.119 Y102.391 E19.17114
G1 X54.112 Y102.306 E19.17522
G1 X54.061 Y101.547 E19.21166
G1 X54.057 Y101.462 E19.21573
G1 X54.032 Y100.848 E19.24516
G1 X54.029 Y100.757 E19.24952
G1 X54.019 Y99.963 E19.28755
G1 X54.019 Y99.877 E19.29167
G1 X54.027 Y99.306 E19.31902
G1 X54.03 Y99.215 E19.32338
G1 X54.063 Y98.427 E19.36116
G1 X54.067 Y98.343 E19.36519
G1 X54.107 Y97.755 E19.39341
G1 X54.115 Y97.668 E19.3976
G1 X54.192 Y96.859 E19.43652
G1 X54.201 Y96.77 E19.4408
G1 X54.27 Y96.21 E19.46783
G1 X54.282 Y96.123 E19.47203
G1 X54.406 Y95.301 E19.51185
G1 X54.42 Y95.217 E19.51593
G1 X54.506 Y94.733 E19.53947
G1 X54.522 Y94.65 E19.54352
G1 X54.691 Y93.825 E19.58385
G1 X54.71 Y93.737 E19.58817
