;FLAVOR:Marlin
;TIME:2094
;Filament used: 2.44916m
;Layer height: 0.2
;MINX:67.757
;MINY:90.813
;MINZ:0.3
;MAXX:125.938
;MAXY:123.503
;MAXZ:17.9
;Generated with Cura_SteamEngine 4.3.0
M140 S60
M105
M190 S60
M104 S200
M105
M109 S200
M82 ;absolute extrusion mode
G28 ;Home
G29; auto bed leveling
G1 Z15.0 F6000 ;Move the platform down 15mm
;Prime the extruder
G92 E0
G1 F200 E3
G92 E0
G92 E0
G92 E0
G1 F1500 E-6.5
;LAYER_COUNT:89
;LAYER:0
M107
G0 F3600 X78.6 Y97.248 Z0.3
;TYPE:SKIRT
G1 F1500 E0
G1 F1800 X79.209 Y96.77 E0.03862
G1 X79.296 Y96.704 E0.04407
G1 X79.787 Y96.342 E0.07451
G1 X79.864 Y96.287 E0.07923
G1 X80.544 Y95.813 E0.12058
G1 X80.618 Y95.763 E0.12504
G1 X81.081 Y95.457 E0.15273
G1 X81.165 Y95.403 E0.15771
G1 X81.831 Y94.989 E0.19683
G1 X81.918 Y94.936 E0.20191
G1 X82.477 Y94.61 E0.2342
G1 X82.56 Y94.563 E0.23896
G1 X83.253 Y94.183 E0.27839
G1 X83.351 Y94.131 E0.28392
G1 X83.803 Y93.901 E0.30922
G1 X83.877 Y93.865 E0.31333
G1 X84.67 Y93.484 E0.35722
G1 X84.762 Y93.442 E0.36227
G1 X85.228 Y93.234 E0.38773
G1 X85.313 Y93.197 E0.39235
G1 X86.049 Y92.891 E0.43212
G1 X86.147 Y92.852 E0.43738
G1 X86.768 Y92.615 E0.47054
G1 X86.862 Y92.58 E0.47555
G1 X87.567 Y92.333 E0.51281
G1 X87.657 Y92.303 E0.51755
G1 X88.249 Y92.113 E0.54857
G1 X88.344 Y92.084 E0.55352
G1 X89.104 Y91.863 E0.59301
G1 X89.191 Y91.839 E0.59751
G1 X89.733 Y91.696 E0.62548
G1 X89.827 Y91.672 E0.63032
G1 X90.593 Y91.492 E0.66957
G1 X90.696 Y91.47 E0.67483
G1 X91.268 Y91.353 E0.70396
G1 X91.355 Y91.336 E0.70838
G1 X92.138 Y91.196 E0.74806
G1 X92.243 Y91.179 E0.75337
G1 X92.842 Y91.09 E0.78358
G1 X92.937 Y91.077 E0.78837
G1 X93.719 Y90.982 E0.82767
G1 X93.811 Y90.972 E0.83228
G1 X94.409 Y90.915 E0.86225
G1 X94.51 Y90.907 E0.86731
G1 X95.315 Y90.853 E0.90756
G1 X95.41 Y90.848 E0.91231
G1 X95.928 Y90.827 E0.93817
G1 X96.025 Y90.824 E0.94301
G1 X96.836 Y90.813 E0.98348
G1 X96.936 Y90.813 E0.98847
G1 X97.566 Y90.822 E1.0199
G1 X97.661 Y90.825 E1.02464
G1 X98.449 Y90.857 E1.06399
G1 X98.55 Y90.862 E1.06903
G1 X99.117 Y90.901 E1.09739
G1 X99.212 Y90.909 E1.10214
G1 X100.019 Y90.986 E1.14259
G1 X100.118 Y90.997 E1.14756
G1 X100.685 Y91.067 E1.17606
G1 X100.78 Y91.08 E1.18084
G1 X101.584 Y91.201 E1.22141
G1 X101.682 Y91.217 E1.22636
G1 X102.235 Y91.316 E1.25439
G1 X102.322 Y91.333 E1.25881
G1 X103.085 Y91.489 E1.29767
G1 X103.187 Y91.511 E1.30287
G1 X103.796 Y91.654 E1.33408
G1 X103.898 Y91.68 E1.33933
G1 X104.684 Y91.889 E1.37991
G1 X104.768 Y91.912 E1.38425
G1 X105.268 Y92.058 E1.41024
G1 X105.359 Y92.086 E1.41499
G1 X106.154 Y92.341 E1.45664
G1 X106.256 Y92.376 E1.46202
G1 X106.767 Y92.557 E1.48907
G1 X106.85 Y92.587 E1.49347
G1 X107.614 Y92.879 E1.53428
G1 X107.704 Y92.915 E1.53911
G1 X108.275 Y93.151 E1.56994
G1 X108.369 Y93.191 E1.57504
G1 X109.067 Y93.503 E1.61318
G1 X109.153 Y93.543 E1.61791
G1 X109.673 Y93.792 E1.64667
G1 X109.766 Y93.838 E1.65185
G1 X110.479 Y94.205 E1.69186
G1 X110.557 Y94.247 E1.69628
G1 X111.106 Y94.547 E1.72749
G1 X111.198 Y94.599 E1.73276
G1 X111.88 Y94.998 E1.77218
G1 X111.961 Y95.047 E1.77691
G1 X112.399 Y95.319 E1.80263
G1 X112.473 Y95.366 E1.807
G1 X113.143 Y95.805 E1.84697
G1 X113.229 Y95.863 E1.85214
G1 X113.751 Y96.227 E1.88389
G1 X113.832 Y96.285 E1.88886
G1 X114.449 Y96.741 E1.92714
G1 X114.527 Y96.8 E1.93202
G1 X114.977 Y97.152 E1.96052
G1 X115.05 Y97.211 E1.9652
G1 X115.679 Y97.73 E2.00589
G1 X115.754 Y97.794 E2.0108
G1 X116.145 Y98.135 E2.03669
G1 X116.213 Y98.196 E2.04125
G1 X116.822 Y98.755 E2.08249
G1 X116.901 Y98.83 E2.08792
G1 X117.343 Y99.261 E2.11872
G1 X117.409 Y99.326 E2.12334
G1 X117.976 Y99.908 E2.16388
G1 X118.043 Y99.979 E2.16875
G1 X118.388 Y100.353 E2.19414
G1 X118.449 Y100.421 E2.19869
G1 X119.003 Y101.053 E2.24062
G1 X119.068 Y101.13 E2.24565
G1 X119.454 Y101.596 E2.27584
G1 X119.517 Y101.673 E2.2808
G1 X120.007 Y102.299 E2.32047
G1 X120.067 Y102.378 E2.32541
G1 X120.407 Y102.838 E2.35395
G1 X120.467 Y102.921 E2.35906
G1 X120.918 Y103.569 E2.39845
G1 X120.966 Y103.641 E2.40277
G1 X121.311 Y104.163 E2.43398
G1 X121.368 Y104.251 E2.43921
G1 X121.763 Y104.888 E2.47661
G1 X121.81 Y104.967 E2.48119
G1 X122.123 Y105.502 E2.51212
G1 X122.175 Y105.594 E2.51739
G1 X122.552 Y106.284 E2.55662
G1 X122.594 Y106.363 E2.56108
G1 X122.861 Y106.882 E2.5902
G1 X122.907 Y106.974 E2.59533
G1 X123.238 Y107.665 E2.63356
G1 X123.277 Y107.749 E2.63818
G1 X123.543 Y108.343 E2.67065
G1 X123.585 Y108.44 E2.67592
G1 X123.874 Y109.14 E2.7137
G1 X123.908 Y109.228 E2.71841
G1 X124.131 Y109.811 E2.74955
G1 X124.165 Y109.902 E2.7544
G1 X124.413 Y110.607 E2.79168
G1 X124.443 Y110.697 E2.79642
G1 X124.629 Y111.274 E2.82666
G1 X124.659 Y111.371 E2.83173
G1 X124.89 Y112.163 E2.87289
G1 X124.918 Y112.263 E2.87807
G1 X125.053 Y112.781 E2.90477
G1 X125.073 Y112.861 E2.90889
G1 X125.257 Y113.64 E2.94882
G1 X125.279 Y113.744 E2.95413
G1 X125.4 Y114.333 E2.98412
G1 X125.419 Y114.428 E2.98896
G1 X125.553 Y115.183 E3.02721
G1 X125.569 Y115.282 E3.03222
G1 X125.667 Y115.941 E3.06546
G1 X125.68 Y116.035 E3.07019
G1 X125.768 Y116.757 E3.10648
G1 X125.778 Y116.853 E3.11129
G1 X125.832 Y117.422 E3.13981
G1 X125.84 Y117.515 E3.14447
G1 X125.895 Y118.316 E3.18452
G1 X125.9 Y118.414 E3.18942
G1 X125.925 Y119.016 E3.21948
G1 X125.928 Y119.115 E3.22442
G1 X125.938 Y119.841 E3.26064
G1 X125.905 Y120.377 E3.28743
G1 X125.793 Y120.901 E3.31417
G1 X125.605 Y121.403 E3.34091
G1 X125.344 Y121.872 E3.36769
G1 X125.016 Y122.296 E3.39443
G1 X124.629 Y122.668 E3.42121
G1 X124.191 Y122.977 E3.44796
G1 X123.712 Y123.218 E3.47471
G1 X123.203 Y123.386 E3.50145
G1 X122.464 Y123.489 E3.53867
G1 X122.151 Y123.5 E3.5543
G1 X122.025 Y123.502 E3.56059
G1 X105.763 Y123.503 E4.3719
G1 X105.712 Y123.503 E4.37445
G1 X104.935 Y123.492 E4.41321
G1 X104.763 Y123.485 E4.4218
G1 X103.667 Y123.417 E4.47659
G1 X103.61 Y123.413 E4.47944
G1 X102.985 Y123.364 E4.51071
G1 X100.227 Y123.229 E4.64848
G1 X97.531 Y123.171 E4.78301
G1 X94.802 Y123.192 E4.91917
G1 X92.071 Y123.289 E5.0555
G1 X90.496 Y123.39 E5.13424
G1 X90.482 Y123.391 E5.13494
G1 X89.069 Y123.476 E5.20556
G1 X88.914 Y123.481 E5.2133
G1 X88.321 Y123.491 E5.24289
G1 X88.262 Y123.492 E5.24583
G1 X72.218 Y123.503 E6.04627
G1 X72.165 Y123.503 E6.04892
G1 X71.455 Y123.493 E6.08434
G1 X70.75 Y123.413 E6.11974
G1 X70.601 Y123.381 E6.12734
G1 X70.087 Y123.229 E6.15408
G1 X69.6 Y123.003 E6.18087
G1 X69.153 Y122.707 E6.20762
G1 X68.755 Y122.348 E6.23436
G1 X68.414 Y121.934 E6.26112
G1 X68.139 Y121.474 E6.28785
G1 X67.935 Y120.978 E6.31461
G1 X67.807 Y120.457 E6.34138
G1 X67.757 Y119.81 E6.37375
G1 X67.766 Y119.178 E6.40529
G1 X67.769 Y119.079 E6.41023
G1 X67.801 Y118.312 E6.44853
G1 X67.806 Y118.215 E6.45337
G1 X67.847 Y117.619 E6.48318
G1 X67.855 Y117.526 E6.48783
G1 X67.931 Y116.726 E6.52793
G1 X67.942 Y116.625 E6.53299
G1 X68.011 Y116.066 E6.56109
G1 X68.025 Y115.968 E6.56603
G1 X68.144 Y115.182 E6.60569
G1 X68.159 Y115.09 E6.61034
G1 X68.265 Y114.495 E6.6405
G1 X68.283 Y114.4 E6.64532
G1 X68.443 Y113.623 E6.6849
G1 X68.465 Y113.522 E6.69006
G1 X68.595 Y112.971 E6.7183
G1 X68.618 Y112.881 E6.72293
G1 X68.818 Y112.122 E6.76209
G1 X68.844 Y112.029 E6.76691
G1 X69.017 Y111.437 E6.79768
G1 X69.047 Y111.337 E6.80289
G1 X69.301 Y110.553 E6.84401
G1 X69.331 Y110.466 E6.8486
G1 X69.502 Y109.981 E6.87425
G1 X69.535 Y109.89 E6.87908
G1 X69.827 Y109.128 E6.91979
G1 X69.864 Y109.036 E6.92474
G1 X70.099 Y108.47 E6.95532
G1 X70.137 Y108.383 E6.96005
G1 X70.453 Y107.675 E6.99873
G1 X70.494 Y107.584 E7.00371
G1 X70.733 Y107.086 E7.03127
G1 X70.774 Y107.005 E7.0358
G1 X71.139 Y106.291 E7.07581
G1 X71.188 Y106.198 E7.08105
G1 X71.487 Y105.653 E7.11207
G1 X71.534 Y105.57 E7.11682
G1 X71.938 Y104.878 E7.1568
G1 X71.988 Y104.795 E7.16164
G1 X72.279 Y104.326 E7.18917
G1 X72.331 Y104.245 E7.19397
G1 X72.76 Y103.593 E7.23291
G1 X72.816 Y103.509 E7.23795
G1 X73.19 Y102.974 E7.27052
G1 X73.244 Y102.9 E7.27509
G1 X73.652 Y102.347 E7.30937
G1 X73.714 Y102.265 E7.3145
G1 X74.136 Y101.726 E7.34865
G1 X74.196 Y101.652 E7.35341
G1 X74.69 Y101.054 E7.3921
G1 X74.756 Y100.976 E7.3972
G1 X75.093 Y100.591 E7.42273
G1 X75.149 Y100.528 E7.42693
G1 X75.717 Y99.909 E7.46885
G1 X75.792 Y99.83 E7.47428
G1 X76.175 Y99.437 E7.50166
G1 X76.241 Y99.371 E7.50631
G1 X76.861 Y98.767 E7.5495
G1 X76.93 Y98.702 E7.55423
G1 X77.325 Y98.337 E7.58106
G1 X77.398 Y98.271 E7.58597
G1 X77.989 Y97.754 E7.62514
G1 X78.064 Y97.691 E7.63003
G1 X78.528 Y97.307 E7.66008
G1 X78.6 Y97.248 E7.66472
G0 F3600 X78.847 Y97.563
G1 F1800 X79.456 Y97.085 E7.70335
G1 X79.533 Y97.026 E7.70819
G1 X80.024 Y96.664 E7.73862
G1 X80.093 Y96.615 E7.74284
G1 X80.773 Y96.141 E7.7842
G1 X80.839 Y96.096 E7.78818
G1 X81.302 Y95.79 E7.81587
G1 X81.377 Y95.742 E7.82031
G1 X82.043 Y95.328 E7.85944
G1 X82.12 Y95.282 E7.86391
G1 X82.679 Y94.956 E7.8962
G1 X82.752 Y94.914 E7.9004
G1 X83.445 Y94.534 E7.93983
G1 X83.533 Y94.488 E7.94478
G1 X83.985 Y94.258 E7.97008
G1 X84.05 Y94.226 E7.9737
G1 X84.843 Y93.845 E8.01759
G1 X84.925 Y93.807 E8.0221
G1 X85.391 Y93.599 E8.04756
G1 X85.467 Y93.566 E8.05169
G1 X86.203 Y93.26 E8.09146
G1 X86.29 Y93.225 E8.09614
G1 X86.911 Y92.988 E8.1293
G1 X86.994 Y92.958 E8.1337
G1 X87.699 Y92.711 E8.17097
G1 X87.779 Y92.684 E8.17518
G1 X88.371 Y92.494 E8.2062
G1 X88.455 Y92.468 E8.21059
G1 X89.215 Y92.247 E8.25008
G1 X89.293 Y92.226 E8.25411
G1 X89.835 Y92.083 E8.28207
G1 X89.919 Y92.062 E8.28639
G1 X90.685 Y91.882 E8.32565
G1 X90.776 Y91.862 E8.3303
G1 X91.348 Y91.745 E8.35943
G1 X91.426 Y91.73 E8.36339
G1 X92.209 Y91.59 E8.40307
G1 X92.302 Y91.575 E8.40777
G1 X92.901 Y91.486 E8.43798
G1 X92.985 Y91.474 E8.44222
G1 X93.767 Y91.379 E8.48152
G1 X93.849 Y91.37 E8.48563
G1 X94.447 Y91.313 E8.5156
G1 X94.537 Y91.306 E8.52011
G1 X95.342 Y91.252 E8.56036
G1 X95.426 Y91.248 E8.56455
G1 X95.944 Y91.227 E8.59042
G1 X96.031 Y91.224 E8.59476
G1 X96.842 Y91.213 E8.63523
G1 X96.931 Y91.213 E8.63967
G1 X97.561 Y91.222 E8.6711
G1 X97.645 Y91.225 E8.67529
G1 X98.433 Y91.257 E8.71464
G1 X98.523 Y91.262 E8.71914
G1 X99.09 Y91.301 E8.74749
G1 X99.174 Y91.307 E8.75169
G1 X99.981 Y91.384 E8.79214
G1 X100.069 Y91.394 E8.79656
G1 X100.636 Y91.464 E8.82506
G1 X100.72 Y91.476 E8.82929
G1 X101.524 Y91.597 E8.86986
G1 X101.612 Y91.611 E8.8743
G1 X102.165 Y91.71 E8.90233
G1 X102.242 Y91.725 E8.90624
G1 X103.005 Y91.881 E8.9451
G1 X103.096 Y91.901 E8.94974
G1 X103.705 Y92.044 E8.98095
G1 X103.795 Y92.066 E8.98558
G1 X104.581 Y92.275 E9.02615
G1 X104.656 Y92.296 E9.03004
G1 X105.156 Y92.442 E9.05603
G1 X105.236 Y92.467 E9.06021
G1 X106.031 Y92.722 E9.10186
G1 X106.122 Y92.753 E9.10666
G1 X106.633 Y92.934 E9.1337
G1 X106.707 Y92.961 E9.13763
G1 X107.471 Y93.253 E9.17844
G1 X107.551 Y93.285 E9.18274
G1 X108.122 Y93.521 E9.21356
G1 X108.206 Y93.557 E9.21812
G1 X108.904 Y93.869 E9.25626
G1 X108.98 Y93.904 E9.26044
G1 X109.5 Y94.153 E9.2892
G1 X109.583 Y94.194 E9.29382
G1 X110.296 Y94.561 E9.33383
G1 X110.365 Y94.598 E9.33773
G1 X110.914 Y94.898 E9.36895
G1 X110.996 Y94.944 E9.37364
G1 X111.678 Y95.343 E9.41306
G1 X111.75 Y95.387 E9.41727
G1 X112.188 Y95.659 E9.44299
G1 X112.254 Y95.7 E9.44687
G1 X112.924 Y96.139 E9.48683
G1 X113 Y96.191 E9.49142
G1 X113.522 Y96.555 E9.52317
G1 X113.594 Y96.607 E9.5276
G1 X114.211 Y97.063 E9.56588
G1 X114.281 Y97.116 E9.57026
G1 X114.731 Y97.468 E9.59876
G1 X114.796 Y97.52 E9.60292
G1 X115.425 Y98.039 E9.6436
G1 X115.491 Y98.095 E9.64792
G1 X115.882 Y98.436 E9.6738
G1 X115.943 Y98.491 E9.6779
G1 X116.552 Y99.05 E9.71914
G1 X116.622 Y99.116 E9.72394
G1 X117.064 Y99.547 E9.75474
G1 X117.122 Y99.605 E9.75883
G1 X117.689 Y100.187 E9.79937
G1 X117.749 Y100.25 E9.80371
G1 X118.094 Y100.624 E9.8291
G1 X118.148 Y100.685 E9.83316
G1 X118.702 Y101.317 E9.87509
G1 X118.76 Y101.385 E9.87955
G1 X119.146 Y101.851 E9.90974
G1 X119.202 Y101.92 E9.91417
G1 X119.692 Y102.546 E9.95383
G1 X119.745 Y102.616 E9.95821
G1 X120.085 Y103.076 E9.98675
G1 X120.138 Y103.15 E9.99129
G1 X120.589 Y103.798 E10.03068
G1 X120.633 Y103.862 E10.03456
G1 X120.978 Y104.384 E10.06577
G1 X121.028 Y104.462 E10.0704
G1 X121.423 Y105.099 E10.10779
G1 X121.465 Y105.169 E10.11186
G1 X121.778 Y105.704 E10.14279
G1 X121.824 Y105.786 E10.14748
G1 X122.201 Y106.476 E10.1867
G1 X122.239 Y106.546 E10.19068
G1 X122.506 Y107.065 E10.2198
G1 X122.546 Y107.147 E10.22435
G1 X122.877 Y107.838 E10.26257
G1 X122.912 Y107.912 E10.26666
G1 X123.178 Y108.506 E10.29913
G1 X123.215 Y108.593 E10.30384
G1 X123.504 Y109.293 E10.34163
G1 X123.535 Y109.371 E10.34581
G1 X123.758 Y109.954 E10.37696
G1 X123.788 Y110.035 E10.38127
G1 X124.036 Y110.74 E10.41855
G1 X124.063 Y110.82 E10.42276
G1 X124.249 Y111.397 E10.45301
G1 X124.275 Y111.483 E10.45749
G1 X124.506 Y112.275 E10.49865
G1 X124.531 Y112.364 E10.50326
G1 X124.666 Y112.882 E10.52997
G1 X124.683 Y112.953 E10.53361
G1 X124.867 Y113.732 E10.57354
G1 X124.888 Y113.824 E10.57825
G1 X125.009 Y114.413 E10.60825
G1 X125.025 Y114.498 E10.61257
G1 X125.159 Y115.253 E10.65082
G1 X125.173 Y115.341 E10.65527
G1 X125.271 Y116 E10.68851
G1 X125.282 Y116.084 E10.69273
G1 X125.37 Y116.806 E10.72902
G1 X125.38 Y116.891 E10.73329
G1 X125.434 Y117.46 E10.76181
G1 X125.44 Y117.543 E10.76596
G1 X125.495 Y118.344 E10.80601
G1 X125.5 Y118.43 E10.81031
G1 X125.525 Y119.032 E10.84037
G1 X125.528 Y119.121 E10.84481
G1 X125.538 Y119.847 E10.88104
G1 X125.505 Y120.351 E10.90624
G1 X125.393 Y120.844 E10.93146
G1 X125.204 Y121.314 E10.95673
G1 X124.945 Y121.747 E10.9819
G1 X124.62 Y122.135 E11.00716
G1 X124.238 Y122.466 E11.03237
G1 X123.809 Y122.733 E11.05758
G1 X123.343 Y122.929 E11.0828
G1 X122.852 Y123.05 E11.10803
G1 X122.45 Y123.089 E11.12818
G1 X122.137 Y123.1 E11.14381
G1 X122.025 Y123.102 E11.1494
G1 X105.763 Y123.103 E11.96071
G1 X105.718 Y123.103 E11.96296
G1 X104.941 Y123.092 E12.00172
G1 X104.788 Y123.086 E12.00936
G1 X103.692 Y123.018 E12.06415
G1 X103.641 Y123.014 E12.0667
G1 X103 Y122.964 E12.09878
G1 X100.256 Y122.829 E12.23584
G1 X97.536 Y122.771 E12.37157
G1 X94.784 Y122.792 E12.50888
G1 X92.033 Y122.89 E12.64621
G1 X90.471 Y122.99 E12.7243
G1 X90.458 Y122.991 E12.72495
G1 X89.045 Y123.076 E12.79557
G1 X88.907 Y123.082 E12.80246
G1 X88.314 Y123.092 E12.83205
G1 X88.262 Y123.092 E12.83465
G1 X72.218 Y123.103 E13.63509
G1 X72.171 Y123.103 E13.63743
G1 X71.461 Y123.093 E13.67286
G1 X70.834 Y123.022 E13.70434
G1 X70.685 Y122.99 E13.71194
G1 X70.201 Y122.845 E13.73715
G1 X69.745 Y122.625 E13.76241
G1 X69.33 Y122.337 E13.78761
G1 X68.965 Y121.987 E13.81284
G1 X68.66 Y121.584 E13.83805
G1 X68.423 Y121.137 E13.86329
G1 X68.258 Y120.659 E13.88852
G1 X68.171 Y120.161 E13.91374
G1 X68.157 Y119.815 E13.93102
G1 X68.166 Y119.183 E13.96255
G1 X68.169 Y119.096 E13.9669
G1 X68.201 Y118.329 E14.0052
G1 X68.206 Y118.242 E14.00954
G1 X68.247 Y117.646 E14.03935
G1 X68.253 Y117.563 E14.0435
G1 X68.329 Y116.763 E14.08359
G1 X68.339 Y116.674 E14.08806
G1 X68.408 Y116.115 E14.11616
G1 X68.42 Y116.028 E14.12054
G1 X68.539 Y115.242 E14.1602
G1 X68.553 Y115.16 E14.16435
G1 X68.659 Y114.565 E14.1945
G1 X68.675 Y114.481 E14.19877
G1 X68.835 Y113.704 E14.23835
G1 X68.855 Y113.614 E14.24295
G1 X68.985 Y113.063 E14.27119
G1 X69.005 Y112.983 E14.27531
G1 X69.205 Y112.224 E14.31447
G1 X69.227 Y112.141 E14.31875
G1 X69.4 Y111.549 E14.34952
G1 X69.428 Y111.461 E14.35413
G1 X69.682 Y110.677 E14.39524
G1 X69.708 Y110.599 E14.39934
G1 X69.879 Y110.114 E14.425
G1 X69.909 Y110.033 E14.42931
G1 X70.201 Y109.271 E14.47002
G1 X70.234 Y109.189 E14.47443
G1 X70.469 Y108.623 E14.50501
G1 X70.502 Y108.546 E14.50919
G1 X70.818 Y107.838 E14.54787
G1 X70.855 Y107.757 E14.55231
G1 X71.094 Y107.259 E14.57987
G1 X71.13 Y107.187 E14.58388
G1 X71.495 Y106.473 E14.62389
G1 X71.538 Y106.391 E14.62851
G1 X71.837 Y105.846 E14.65952
G1 X71.879 Y105.772 E14.66377
G1 X72.283 Y105.08 E14.70375
G1 X72.328 Y105.006 E14.70807
G1 X72.619 Y104.537 E14.7356
G1 X72.665 Y104.465 E14.73987
G1 X73.094 Y103.813 E14.7788
G1 X73.144 Y103.739 E14.78326
G1 X73.518 Y103.204 E14.81583
G1 X73.566 Y103.137 E14.81994
G1 X73.974 Y102.584 E14.85422
G1 X74.029 Y102.511 E14.85878
G1 X74.451 Y101.972 E14.89294
G1 X74.504 Y101.907 E14.89712
G1 X74.998 Y101.309 E14.93582
