;FLAVOR:Marlin
;TIME:5457
;Filament used: 6.60587m
;Layer height: 0.2
;MINX:93.718
;MINY:58.305
;MINZ:0.3
;MAXX:136.303
;MAXY:136.261
;MAXZ:36.9
;Generated with Cura_SteamEngine 4.3.0
M140 S60
M105
M190 S60
M104 S200
M105
M109 S200
M82 ;absolute extrusion mode
G28 ;Home
G29; auto bed leveling
G1 Z15.0 F6000 ;Move the platform down 15mm
;Prime the extruder
G92 E0
G1 F200 E3
G92 E0
G92 E0
G92 E0
G1 F1500 E-6.5
;LAYER_COUNT:184
;LAYER:0
M107
G0 F3600 X94.48 Y59.948 Z0.3
;TYPE:SKIRT
G1 F1500 E0
G1 F1800 X94.871 Y59.48 E0.03043
G1 X94.979 Y59.371 E0.03808
G1 X95.383 Y59.019 E0.06481
G1 X95.836 Y58.732 E0.09157
G1 X96.326 Y58.514 E0.11832
G1 X96.843 Y58.372 E0.14507
G1 X97.576 Y58.305 E0.18179
G1 X98.473 Y58.315 E0.22655
G1 X98.597 Y58.319 E0.23274
G1 X99.52 Y58.361 E0.27883
G1 X99.621 Y58.367 E0.28388
G1 X100.676 Y58.445 E0.33666
G1 X100.726 Y58.449 E0.33916
G1 X101.353 Y58.504 E0.37056
G1 X101.471 Y58.516 E0.37648
G1 X102.396 Y58.628 E0.42297
G1 X102.452 Y58.635 E0.42578
G1 X102.948 Y58.703 E0.45076
G1 X103 Y58.711 E0.45338
G1 X103.665 Y58.812 E0.48694
G1 X103.849 Y58.845 E0.49627
G1 X106.068 Y59.301 E0.60929
G1 X106.175 Y59.325 E0.61476
G1 X107.004 Y59.522 E0.65727
G1 X107.102 Y59.546 E0.6623
G1 X107.876 Y59.753 E0.70228
G1 X107.983 Y59.783 E0.70782
G1 X109.054 Y60.105 E0.76361
G1 X109.098 Y60.119 E0.76592
G1 X109.587 Y60.273 E0.7915
G1 X109.716 Y60.317 E0.7983
G1 X111.041 Y60.79 E0.86849
G1 X111.138 Y60.826 E0.87365
G1 X111.885 Y61.117 E0.91364
G1 X111.971 Y61.151 E0.91826
G1 X112.512 Y61.378 E0.94753
G1 X112.55 Y61.395 E0.9496
G1 X113.3 Y61.72 E0.99038
G1 X113.349 Y61.741 E0.99304
G1 X113.921 Y61.999 E1.02435
G1 X114.021 Y62.046 E1.02986
G1 X114.85 Y62.451 E1.07589
G1 X114.937 Y62.495 E1.08076
G1 X115.739 Y62.914 E1.1259
G1 X115.835 Y62.966 E1.13135
G1 X116.396 Y63.281 E1.16345
G1 X116.437 Y63.305 E1.16582
G1 X117.081 Y63.678 E1.20295
G1 X117.13 Y63.706 E1.20576
G1 X117.778 Y64.095 E1.24347
G1 X117.849 Y64.139 E1.24764
G1 X118.355 Y64.459 E1.2775
G1 X118.401 Y64.489 E1.28024
G1 X118.817 Y64.761 E1.30504
G1 X118.858 Y64.788 E1.30749
G1 X119.575 Y65.271 E1.35062
G1 X119.653 Y65.325 E1.35535
G1 X119.959 Y65.543 E1.3741
G1 X119.99 Y65.565 E1.37599
G1 X120.598 Y66.008 E1.41353
G1 X120.637 Y66.037 E1.41595
G1 X121.128 Y66.405 E1.44656
G1 X121.211 Y66.47 E1.45182
G1 X121.883 Y67.005 E1.49468
G1 X121.93 Y67.043 E1.49769
G1 X122.271 Y67.324 E1.51974
G1 X122.305 Y67.352 E1.52193
G1 X122.821 Y67.788 E1.55564
G1 X122.904 Y67.86 E1.56112
G1 X123.447 Y68.348 E1.59754
G1 X123.482 Y68.38 E1.59991
G1 X123.868 Y68.736 E1.6261
G1 X123.905 Y68.771 E1.62865
G1 X124.376 Y69.218 E1.66104
G1 X124.445 Y69.285 E1.66584
G1 X125.169 Y70.01 E1.71696
G1 X125.186 Y70.027 E1.71816
G1 X125.814 Y70.664 E1.76278
G1 X125.922 Y70.778 E1.77062
G1 X126.295 Y71.191 E1.79838
G1 X126.342 Y71.244 E1.80192
G1 X126.862 Y71.843 E1.84149
G1 X126.894 Y71.881 E1.84397
G1 X127.42 Y72.504 E1.88465
G1 X127.479 Y72.576 E1.88929
G1 X127.74 Y72.902 E1.91013
G1 X127.764 Y72.932 E1.91204
G1 X128.248 Y73.55 E1.95121
G1 X128.279 Y73.59 E1.95373
G1 X128.696 Y74.138 E1.98809
G1 X128.757 Y74.221 E1.99322
G1 X129.111 Y74.715 E2.02354
G1 X129.137 Y74.751 E2.02576
G1 X129.461 Y75.215 E2.05399
G1 X129.49 Y75.258 E2.05658
G1 X129.869 Y75.818 E2.09032
G1 X129.925 Y75.902 E2.09535
G1 X130.358 Y76.582 E2.13557
G1 X130.389 Y76.632 E2.13851
G1 X130.639 Y77.039 E2.16234
G1 X130.665 Y77.083 E2.16489
G1 X131.051 Y77.732 E2.20256
G1 X131.1 Y77.816 E2.20741
G1 X131.429 Y78.405 E2.24107
G1 X131.456 Y78.455 E2.24391
G1 X131.689 Y78.888 E2.26844
G1 X131.71 Y78.927 E2.27065
G1 X132.144 Y79.758 E2.31742
G1 X132.188 Y79.846 E2.32233
G1 X132.311 Y80.098 E2.33632
G1 X132.32 Y80.116 E2.33732
G1 X132.714 Y80.935 E2.38267
G1 X132.737 Y80.983 E2.38532
G1 X132.944 Y81.43 E2.4099
G1 X132.992 Y81.539 E2.41584
G1 X133.421 Y82.552 E2.47072
G1 X133.461 Y82.65 E2.476
G1 X133.835 Y83.611 E2.52745
G1 X133.868 Y83.701 E2.53223
G1 X133.994 Y84.052 E2.55084
G1 X134.008 Y84.09 E2.55286
G1 X134.265 Y84.832 E2.59204
G1 X134.283 Y84.885 E2.59483
G1 X134.478 Y85.478 E2.62597
G1 X134.508 Y85.576 E2.63108
G1 X134.728 Y86.315 E2.66955
G1 X134.742 Y86.361 E2.67195
G1 X134.91 Y86.954 E2.7027
G1 X134.924 Y87.007 E2.70544
G1 X135.137 Y87.805 E2.74664
G1 X135.163 Y87.908 E2.75194
G1 X135.326 Y88.6 E2.78741
G1 X135.342 Y88.668 E2.7909
G1 X135.516 Y89.477 E2.83218
G1 X135.536 Y89.581 E2.83746
G1 X135.749 Y90.735 E2.89601
G1 X135.766 Y90.832 E2.90092
G1 X135.917 Y91.798 E2.9497
G1 X135.931 Y91.898 E2.95474
G1 X135.989 Y92.352 E2.97757
G1 X135.994 Y92.39 E2.97949
G1 X136.103 Y93.323 E3.02635
G1 X136.108 Y93.369 E3.02866
G1 X136.165 Y93.918 E3.0562
G1 X136.175 Y94.037 E3.06215
G1 X136.251 Y95.116 E3.11612
G1 X136.257 Y95.225 E3.12156
G1 X136.294 Y96.151 E3.1678
G1 X136.297 Y96.25 E3.17274
G1 X136.302 Y96.652 E3.1928
G1 X136.302 Y96.693 E3.19484
G1 X136.303 Y97.503 E3.23525
G1 X136.303 Y97.554 E3.2378
G1 X136.294 Y98.24 E3.27203
G1 X136.291 Y98.342 E3.27712
G1 X136.259 Y99.116 E3.31577
G1 X136.257 Y99.165 E3.31821
G1 X136.235 Y99.564 E3.33815
G1 X136.232 Y99.612 E3.34055
G1 X136.201 Y100.065 E3.3632
G1 X136.189 Y100.197 E3.36981
G1 X135.953 Y102.433 E3.48199
G1 X135.944 Y102.513 E3.486
G1 X135.881 Y103.004 E3.5107
G1 X135.864 Y103.118 E3.51645
G1 X135.762 Y103.752 E3.54849
G1 X135.741 Y103.873 E3.55462
G1 X135.392 Y105.652 E3.64506
G1 X135.375 Y105.734 E3.64924
G1 X135.31 Y106.029 E3.66431
G1 X135.301 Y106.068 E3.66631
G1 X135.171 Y106.628 E3.69499
G1 X135.141 Y106.747 E3.70111
G1 X134.822 Y107.936 E3.76253
G1 X134.795 Y108.032 E3.7675
G1 X134.574 Y108.773 E3.80608
G1 X134.545 Y108.865 E3.81089
G1 X134.353 Y109.451 E3.84166
G1 X134.337 Y109.499 E3.84418
G1 X134.093 Y110.21 E3.88169
G1 X134.075 Y110.26 E3.88434
G1 X133.813 Y110.988 E3.92294
G1 X133.782 Y111.073 E3.92745
G1 X133.578 Y111.598 E3.95555
G1 X133.562 Y111.636 E3.95761
G1 X133.351 Y112.161 E3.98584
G1 X133.331 Y112.211 E3.98852
G1 X133.045 Y112.893 E4.02542
G1 X133.004 Y112.986 E4.03049
G1 X132.725 Y113.602 E4.06423
G1 X132.708 Y113.639 E4.06626
G1 X132.47 Y114.149 E4.09434
G1 X132.445 Y114.202 E4.09726
G1 X132.116 Y114.878 E4.13477
G1 X132.072 Y114.966 E4.13968
G1 X131.798 Y115.492 E4.16927
G1 X131.778 Y115.53 E4.17141
G1 X131.578 Y115.903 E4.19253
G1 X131.552 Y115.951 E4.19525
G1 X131.258 Y116.48 E4.22544
G1 X131.205 Y116.571 E4.2307
G1 X130.746 Y117.343 E4.27551
G1 X130.718 Y117.389 E4.27819
G1 X130.403 Y117.901 E4.30818
G1 X130.376 Y117.944 E4.31072
G1 X129.978 Y118.571 E4.34777
G1 X129.925 Y118.653 E4.35264
G1 X129.574 Y119.174 E4.38398
G1 X129.541 Y119.222 E4.38689
G1 X129.258 Y119.628 E4.41158
G1 X129.232 Y119.665 E4.41383
G1 X128.773 Y120.306 E4.45317
G1 X128.718 Y120.381 E4.45781
G1 X128.356 Y120.86 E4.48776
G1 X128.328 Y120.896 E4.49004
G1 X127.944 Y121.391 E4.52129
G1 X127.915 Y121.428 E4.52364
G1 X127.42 Y122.049 E4.56326
G1 X127.352 Y122.132 E4.56861
G1 X126.948 Y122.609 E4.5998
G1 X126.92 Y122.642 E4.60195
G1 X126.519 Y123.104 E4.63248
G1 X126.485 Y123.142 E4.63502
G1 X126.025 Y123.657 E4.66947
G1 X125.962 Y123.726 E4.67413
G1 X125.74 Y123.962 E4.6903
G1 X125.695 Y124.009 E4.69354
G1 X124.825 Y124.901 E4.75571
G1 X124.749 Y124.977 E4.76107
G1 X123.814 Y125.88 E4.82592
G1 X123.757 Y125.933 E4.8298
G1 X123.571 Y126.105 E4.84244
G1 X123.54 Y126.133 E4.84453
G1 X123.095 Y126.535 E4.87444
G1 X123.012 Y126.608 E4.87996
G1 X122.376 Y127.148 E4.92158
G1 X122.332 Y127.185 E4.92445
G1 X121.945 Y127.503 E4.94944
G1 X121.907 Y127.534 E4.95189
G1 X121.248 Y128.061 E4.99398
G1 X121.18 Y128.114 E4.99829
G1 X120.762 Y128.432 E5.02449
G1 X120.727 Y128.458 E5.02666
G1 X120.243 Y128.817 E5.05673
G1 X120.206 Y128.844 E5.05901
G1 X119.846 Y129.104 E5.08117
G1 X119.749 Y129.172 E5.08708
G1 X118.803 Y129.809 E5.14398
G1 X118.745 Y129.847 E5.14744
G1 X118.378 Y130.084 E5.16923
G1 X118.336 Y130.111 E5.17172
G1 X117.517 Y130.624 E5.21994
G1 X117.448 Y130.666 E5.22397
G1 X117.228 Y130.797 E5.23674
G1 X117.202 Y130.813 E5.23826
G1 X116.685 Y131.115 E5.26814
G1 X116.64 Y131.14 E5.2707
G1 X116.134 Y131.426 E5.2997
G1 X116.035 Y131.48 E5.30533
G1 X115.118 Y131.961 E5.35699
G1 X115.059 Y131.991 E5.36029
G1 X114.638 Y132.202 E5.38379
G1 X114.596 Y132.223 E5.38613
G1 X113.928 Y132.547 E5.42317
G1 X113.846 Y132.586 E5.4277
G1 X113.377 Y132.799 E5.4534
G1 X113.329 Y132.82 E5.45601
G1 X112.711 Y133.09 E5.48966
G1 X112.672 Y133.107 E5.49178
G1 X111.861 Y133.45 E5.53571
G1 X111.78 Y133.483 E5.54007
G1 X111.349 Y133.653 E5.56319
G1 X111.308 Y133.669 E5.56538
G1 X110.861 Y133.839 E5.58924
G1 X110.803 Y133.86 E5.59232
G1 X110.21 Y134.074 E5.62377
G1 X110.114 Y134.107 E5.62884
G1 X109.388 Y134.346 E5.66697
G1 X109.338 Y134.362 E5.66959
G1 X108.556 Y134.607 E5.71047
G1 X108.51 Y134.622 E5.71289
G1 X107.85 Y134.819 E5.74725
G1 X107.737 Y134.85 E5.7531
G1 X106.849 Y135.084 E5.79891
G1 X106.764 Y135.106 E5.80329
G1 X106.086 Y135.267 E5.83806
G1 X105.995 Y135.287 E5.84271
G1 X105.344 Y135.424 E5.8759
G1 X105.294 Y135.434 E5.87844
G1 X104.762 Y135.538 E5.90548
G1 X104.709 Y135.548 E5.90818
G1 X103.77 Y135.717 E5.95577
G1 X103.684 Y135.731 E5.96012
G1 X103.362 Y135.781 E5.97638
G1 X103.324 Y135.787 E5.9783
G1 X102.554 Y135.898 E6.01711
G1 X102.504 Y135.905 E6.01963
G1 X101.804 Y135.996 E6.05485
G1 X101.701 Y136.008 E6.06002
G1 X100.967 Y136.082 E6.09683
G1 X100.917 Y136.087 E6.09933
G1 X100.18 Y136.151 E6.13624
G1 X100.126 Y136.155 E6.13894
G1 X99.442 Y136.204 E6.17315
G1 X99.326 Y136.21 E6.17895
G1 X98.356 Y136.248 E6.22738
G1 X98.269 Y136.251 E6.23172
G1 X97.606 Y136.261 E6.2648
G1 X97.071 Y136.229 E6.29154
G1 X96.546 Y136.118 E6.31831
G1 X96.044 Y135.93 E6.34506
G1 X95.575 Y135.67 E6.37181
G1 X95.1 Y135.297 E6.40194
G1 X94.985 Y135.19 E6.40978
G1 X94.62 Y134.796 E6.43657
G1 X94.319 Y134.353 E6.46329
G1 X94.086 Y133.87 E6.49005
G1 X93.928 Y133.357 E6.51683
G1 X93.838 Y132.621 E6.55382
G1 X93.82 Y131.651 E6.60222
G1 X93.819 Y131.582 E6.60567
G1 X93.821 Y127.257 E6.82144
G1 X93.765 Y123.927 E6.9876
G1 X93.723 Y122.694 E7.04915
G1 X93.721 Y122.606 E7.05354
G1 X93.718 Y122.301 E7.06876
G1 X93.718 Y122.265 E7.07055
G1 X93.722 Y105.608 E7.90157
G1 X93.724 Y105.491 E7.90741
G1 X93.735 Y105.155 E7.92419
G1 X93.74 Y105.049 E7.92948
G1 X93.795 Y104.166 E7.97362
G1 X93.798 Y104.117 E7.97607
G1 X93.863 Y103.267 E8.0186
G1 X93.995 Y100.532 E8.15521
G1 X94.05 Y97.836 E8.28974
G1 X94.027 Y95.105 E8.42599
G1 X93.927 Y92.352 E8.56343
G1 X93.768 Y89.987 E8.68169
G1 X93.761 Y89.834 E8.68933
G1 X93.725 Y88.358 E8.76299
G1 X93.724 Y88.271 E8.76733
G1 X93.718 Y72.451 E9.55659
G1 X93.718 Y72.399 E9.55919
G1 X93.727 Y71.762 E9.59097
G1 X93.728 Y71.736 E9.59227
G1 X93.818 Y67.506 E9.80335
G1 X93.818 Y62.631 E10.04657
G1 X93.828 Y61.96 E10.08005
G1 X93.876 Y61.426 E10.1068
G1 X94.003 Y60.905 E10.13355
G1 X94.206 Y60.409 E10.16029
G1 X94.48 Y59.948 E10.18704
G0 F3600 X94.876 Y60.084
G1 F1800 X95.155 Y59.762 E10.2083
G1 X95.263 Y59.653 E10.21595
G1 X95.646 Y59.323 E10.24118
G1 X96.076 Y59.057 E10.2664
G1 X96.543 Y58.863 E10.29163
G1 X97.034 Y58.745 E10.31682
G1 X97.572 Y58.705 E10.34374
G1 X98.469 Y58.715 E10.38849
G1 X98.578 Y58.718 E10.39393
G1 X99.501 Y58.76 E10.44003
G1 X99.592 Y58.766 E10.44458
G1 X100.647 Y58.844 E10.49736
G1 X100.691 Y58.847 E10.49956
G1 X101.318 Y58.902 E10.53096
G1 X101.423 Y58.913 E10.53623
G1 X102.348 Y59.025 E10.58271
G1 X102.398 Y59.032 E10.58523
G1 X102.894 Y59.1 E10.61021
G1 X102.94 Y59.106 E10.61252
G1 X103.605 Y59.207 E10.64608
G1 X103.768 Y59.236 E10.65434
G1 X105.987 Y59.692 E10.76736
G1 X106.083 Y59.714 E10.77227
G1 X106.912 Y59.911 E10.81478
G1 X106.999 Y59.933 E10.81926
G1 X107.773 Y60.14 E10.85923
G1 X107.867 Y60.167 E10.86411
G1 X108.938 Y60.489 E10.91991
G1 X108.978 Y60.501 E10.92199
G1 X109.467 Y60.655 E10.94757
G1 X109.582 Y60.693 E10.95361
G1 X110.907 Y61.166 E11.0238
G1 X110.993 Y61.198 E11.02838
G1 X111.74 Y61.489 E11.06837
G1 X111.816 Y61.52 E11.07247
G1 X112.357 Y61.747 E11.10174
G1 X112.391 Y61.762 E11.10359
G1 X113.141 Y62.087 E11.14437
G1 X113.185 Y62.106 E11.14676
G1 X113.757 Y62.364 E11.17807
G1 X113.846 Y62.406 E11.18298
G1 X114.675 Y62.811 E11.22901
G1 X114.752 Y62.85 E11.23332
G1 X115.554 Y63.269 E11.27846
G1 X115.639 Y63.315 E11.28328
G1 X116.2 Y63.63 E11.31538
G1 X116.237 Y63.651 E11.3175
G1 X116.881 Y64.024 E11.35463
G1 X116.924 Y64.049 E11.35711
G1 X117.572 Y64.438 E11.39482
G1 X117.635 Y64.477 E11.39852
G1 X118.141 Y64.797 E11.42839
G1 X118.182 Y64.824 E11.43084
G1 X118.598 Y65.096 E11.45563
G1 X118.635 Y65.12 E11.45783
G1 X119.352 Y65.603 E11.50096
G1 X119.421 Y65.651 E11.50516
G1 X119.727 Y65.869 E11.5239
G1 X119.754 Y65.889 E11.52558
G1 X120.362 Y66.332 E11.56311
G1 X120.397 Y66.357 E11.56526
G1 X120.888 Y66.725 E11.59587
G1 X120.962 Y66.783 E11.60056
G1 X121.634 Y67.318 E11.64341
G1 X121.676 Y67.351 E11.64608
G1 X122.017 Y67.632 E11.66812
G1 X122.047 Y67.658 E11.6701
G1 X122.563 Y68.094 E11.7038
G1 X122.637 Y68.158 E11.70869
G1 X123.18 Y68.646 E11.74511
G1 X123.21 Y68.674 E11.74716
G1 X123.596 Y69.03 E11.77335
G1 X123.63 Y69.061 E11.77565
G1 X124.101 Y69.508 E11.80805
G1 X124.162 Y69.568 E11.81231
G1 X124.886 Y70.293 E11.86343
G1 X124.901 Y70.307 E11.86445
G1 X125.529 Y70.944 E11.90908
G1 X125.625 Y71.046 E11.91607
G1 X125.998 Y71.459 E11.94383
G1 X126.039 Y71.506 E11.94695
G1 X126.559 Y72.105 E11.98652
G1 X126.588 Y72.139 E11.98875
G1 X127.114 Y72.762 E12.02943
G1 X127.167 Y72.826 E12.03357
G1 X127.428 Y73.152 E12.05441
G1 X127.449 Y73.179 E12.05611
G1 X127.933 Y73.797 E12.09528
G1 X127.961 Y73.832 E12.09751
G1 X128.378 Y74.38 E12.13187
G1 X128.432 Y74.454 E12.13644
G1 X128.786 Y74.948 E12.16676
G1 X128.809 Y74.98 E12.16873
G1 X129.133 Y75.444 E12.19696
G1 X129.159 Y75.482 E12.19926
G1 X129.538 Y76.042 E12.23299
G1 X129.587 Y76.117 E12.23746
G1 X130.02 Y76.797 E12.27768
G1 X130.048 Y76.841 E12.28028
G1 X130.298 Y77.248 E12.30411
G1 X130.321 Y77.287 E12.30637
G1 X130.707 Y77.936 E12.34404
G1 X130.751 Y78.012 E12.34843
G1 X131.08 Y78.601 E12.38208
G1 X131.104 Y78.645 E12.38459
G1 X131.337 Y79.078 E12.40912
G1 X131.355 Y79.113 E12.41108
G1 X131.789 Y79.944 E12.45785
G1 X131.829 Y80.021 E12.46218
G1 X131.952 Y80.273 E12.47617
G1 X131.96 Y80.29 E12.47711
G1 X132.354 Y81.109 E12.52245
G1 X132.374 Y81.151 E12.52477
G1 X132.581 Y81.598 E12.54935
G1 X132.624 Y81.695 E12.55464
G1 X133.053 Y82.708 E12.60953
G1 X133.088 Y82.795 E12.6142
G1 X133.462 Y83.756 E12.66565
G1 X133.492 Y83.836 E12.66991
G1 X133.618 Y84.187 E12.68852
G1 X133.63 Y84.221 E12.69032
G1 X133.887 Y84.963 E12.72949
G1 X133.903 Y85.01 E12.73197
G1 X134.098 Y85.603 E12.76312
G1 X134.125 Y85.69 E12.76766
G1 X134.345 Y86.429 E12.80613
G1 X134.357 Y86.47 E12.80826
G1 X134.525 Y87.063 E12.83901
G1 X134.538 Y87.11 E12.84144
G1 X134.751 Y87.908 E12.88265
G1 X134.774 Y87.999 E12.88733
G1 X134.937 Y88.691 E12.9228
G1 X134.95 Y88.752 E12.92591
G1 X135.124 Y89.561 E12.96719
G1 X135.143 Y89.653 E12.97188
G1 X135.356 Y90.807 E13.03043
G1 X135.371 Y90.894 E13.03483
G1 X135.522 Y91.86 E13.08361
G1 X135.534 Y91.948 E13.08804
G1 X135.592 Y92.402 E13.11088
G1 X135.596 Y92.437 E13.11263
G1 X135.705 Y93.37 E13.1595
G1 X135.71 Y93.411 E13.16156
G1 X135.767 Y93.96 E13.1891
G1 X135.776 Y94.065 E13.19435
G1 X135.852 Y95.144 E13.24832
G1 X135.857 Y95.241 E13.25316
G1 X135.894 Y96.167 E13.2994
G1 X135.897 Y96.255 E13.30379
G1 X135.902 Y96.657 E13.32385
G1 X135.902 Y96.693 E13.32565
G1 X135.903 Y97.503 E13.36606
G1 X135.903 Y97.549 E13.36835
G1 X135.894 Y98.235 E13.40258
G1 X135.891 Y98.325 E13.40707
G1 X135.859 Y99.099 E13.44572
G1 X135.857 Y99.143 E13.44792
G1 X135.835 Y99.542 E13.46785
G1 X135.833 Y99.584 E13.46995
G1 X135.802 Y100.037 E13.4926
G1 X135.791 Y100.155 E13.49852
G1 X135.555 Y102.391 E13.61069
G1 X135.547 Y102.462 E13.61426
G1 X135.484 Y102.953 E13.63895
G1 X135.469 Y103.054 E13.64405
G1 X135.367 Y103.688 E13.67608
G1 X135.348 Y103.796 E13.68155
G1 X134.999 Y105.575 E13.772
G1 X134.984 Y105.648 E13.77572
G1 X134.919 Y105.943 E13.79079
G1 X134.911 Y105.978 E13.79258
G1 X134.781 Y106.538 E13.82126
G1 X134.755 Y106.643 E13.82666
G1 X134.436 Y107.832 E13.88808
G1 X134.412 Y107.918 E13.89253
